Chunting/UR_Robot_Log_Data/rtde/examples/robot_data.csv
timestamp,target_q_0,target_q_1,target_q_2,target_q_3,target_q_4,target_q_5,target_qd_0,target_qd_1,target_qd_2,target_qd_3,target_qd_4,target_qd_5,target_qdd_0,target_qdd_1,target_qdd_2,target_qdd_3,target_qdd_4,target_qdd_5,target_current_0,target_current_1,target_current_2,target_current_3,target_current_4,target_current_5,target_moment_0,target_moment_1,target_moment_2,target_moment_3,target_moment_4,target_moment_5,actual_q_0,actual_q_1,actual_q_2,actual_q_3,actual_q_4,actual_q_5,actual_qd_0,actual_qd_1,actual_qd_2,actual_qd_3,actual_qd_4,actual_qd_5,actual_current_0,actual_current_1,actual_current_2,actual_current_3,actual_current_4,actual_current_5,joint_control_output_0,joint_control_output_1,joint_control_output_2,joint_control_output_3,joint_control_output_4,joint_control_output_5,actual_TCP_pose_0,actual_TCP_pose_1,actual_TCP_pose_2,actual_TCP_pose_3,actual_TCP_pose_4,actual_TCP_pose_5,actual_TCP_speed_0,actual_TCP_speed_1,actual_TCP_speed_2,actual_TCP_speed_3,actual_TCP_speed_4,actual_TCP_speed_5,actual_TCP_force_0,actual_TCP_force_1,actual_TCP_force_2,actual_TCP_force_3,actual_TCP_force_4,actual_TCP_force_5,target_TCP_pose_0,target_TCP_pose_1,target_TCP_pose_2,target_TCP_pose_3,target_TCP_pose_4,target_TCP_pose_5,target_TCP_speed_0,target_TCP_speed_1,target_TCP_speed_2,target_TCP_speed_3,target_TCP_speed_4,target_TCP_speed_5,actual_digital_input_bits,joint_temperatures_0,joint_temperatures_1,joint_temperatures_2,joint_temperatures_3,joint_temperatures_4,joint_temperatures_5,actual_execution_time,robot_mode,joint_mode_0,joint_mode_1,joint_mode_2,joint_mode_3,joint_mode_4,joint_mode_5,safety_mode,actual_tool_accelerometer_0,actual_tool_accelerometer_1,actual_tool_accelerometer_2,speed_scaling,target_speed_fraction,actual_momentum,actual_main_voltage,actual_robot_voltage,actual_robot_current,actual_joint_voltage_0,actual_joint_voltage_1,actual_joint_voltage_2,actual_joint_voltage_3,actual_joint_voltage_4,actual_joint_voltage_5,actual_digital_output_bits,runtime_state
10249.815999999999,-1.7082622686969202,-1.4460113684283655,0.8773298263549805,-1.684047047291891,-1.537772003804342,4.6051483154296875,0.0,0.0,0.0,0.0,0.0,0.0,0.0,0.0,0.0,0.0,0.0,0.0,-2.354744154141422,0.6520188587493864,0.13804257416430613,0.010076233655080018,-0.15814848574156407,0.0,-27.00934727813764,7.455624913034452,1.5810312033113494,0.0844750615754665,-1.305775827314104,0.0,-1.7082861105548304,-1.4459870497332972,0.877377986907959,-1.684058968220846,-1.5378559271441858,4.605064868927002,0.0,0.0,-0.0,0.0,0.0,0.0,-2.8695175647735596,0.5044073462486267,0.051561642438173294,0.2501067519187927,-0.18758006393909454,0.07930213958024979,-2.8919355869293213,0.5066491961479187,0.051561642438173294,0.24400658905506134,-0.19520527124404907,0.07472702115774155,-0.043450014413795784,0.5193037255933164,0.7181881473528217,-1.859718620682259,-1.8309254844078697,-0.7046729398644718,0.0,0.0,0.0,0.0,0.0,0.0,-12.93502125907793,2.411786625703792,-9.803818071405237,3.3115397417375614,-1.4773208145297823,0.007835331527083924,-0.04347273383917641,0.5192784165121069,0.7182211328624131,-1.859662786036688,-1.8308179548429864,-0.7046120734787321,0.0,0.0,0.0,0.0,0.0,0.0,0,32.3699836730957,31.269990921020508,32.1199836730957,41.07998275756836,43.00998306274414,46.49998474121094,0.353436,7,253,253,253,253,253,253,1,0.15283875167369843,9.119379043579102,-0.6652981042861938,0.0,1.0,0.0,48.19097137451172,48.13019943237305,0.5013031363487244,47.89500045776367,47.8489990234375,47.72700119018555,47.89500045776367,47.71200180053711,47.86399841308594,0,1
10249.823999999999,-1.7082622686969202,-1.4460113684283655,0.8773298263549805,-1.684047047291891,-1.537772003804342,4.6051483154296875,0.0,0.0,0.0,0.0,0.0,0.0,0.0,0.0,0.0,0.0,0.0,0.0,-2.354744154141422,0.6520188587493864,0.13804257416430613,0.010076233655080018,-0.15814848574156407,0.0,-27.00934727813764,7.455624913034452,1.5810312033113494,0.0844750615754665,-1.305775827314104,0.0,-1.7082503477679651,-1.4459994474994105,0.8772940635681152,-1.6840947310077112,-1.5378440062152308,4.605112552642822,0.0,0.0,-0.0,0.0,0.0,0.0,-2.8964192867279053,0.5088909864425659,0.06501250714063644,0.22723113000392914,-0.19673031568527222,0.0732019767165184,-2.8919355869293213,0.5066491961479187,0.051561642438173294,0.24400658905506134,-0.19520527124404907,0.07472702115774155,-0.04347301997152154,0.5192775103960352,0.7182372221353206,-1.859627412852576,-1.8308262157842456,-0.7047548483991758,0.0,0.0,0.0,0.0,0.0,0.0,-13.70172464919586,2.977951980119853,-8.338798491192692,2.9195803000204212,-1.3842969627490487,-0.019319171919717118,-0.04347273383917641,0.5192784165121069,0.7182211328624131,-1.859662786036688,-1.8308179548429864,-0.7046120734787321,0.0,0.0,0.0,0.0,0.0,0.0,0,32.3699836730957,31.269990921020508,32.1199836730957,41.07998275756836,43.00998306274414,46.49998474121094,0.373272,7,253,253,253,253,253,253,1,0.18580397963523865,9.098401069641113,-0.6652981042861938,0.0,1.0,0.0,48.13019943237305,48.13019943237305,0.5729187726974487,47.89500045776367,47.8489990234375,47.72700119018555,47.87900161743164,47.71200180053711,47.86399841308594,0,1
10249.832,-1.7082622686969202,-1.4460113684283655,0.8773298263549805,-1.684047047291891,-1.537772003804342,4.6051483154296875,0.0,0.0,0.0,0.0,0.0,0.0,0.0,0.0,0.0,0.0,0.0,0.0,-2.354744154141422,0.6520188587493864,0.13804257416430613,0.010076233655080018,-0.15814848574156407,0.0,-27.00934727813764,7.455624913034452,1.5810312033113494,0.0844750615754665,-1.305775827314104,0.0,-1.7082622686969202,-1.4459870497332972,0.8773417472839355,-1.684058968220846,-1.537867848073141,4.605076789855957,0.0,0.0,-0.0,0.0,0.0,0.0,-2.8784847259521484,0.5066491961479187,0.06052888557314873,0.23790642619132996,-0.1997803896665573,0.08997742831707001,-2.8919355869293213,0.5066491961479187,0.051561642438173294,0.24400658905506134,-0.19520527124404907,0.07472702115774155,-0.043462458312185,0.5192951510981941,0.7182046446700049,-1.8596887332611247,-1.8309113960827639,-0.7047053510112162,0.0,0.0,0.0,0.0,0.0,0.0,-12.884872281666842,2.7246604831226184,-8.904916196575142,3.0870095297907882,-1.4280925226486167,0.1629388964890827,-0.04347273383917641,0.5192784165121069,0.7182211328624131,-1.859662786036688,-1.8308179548429864,-0.7046120734787321,0.0,0.0,0.0,0.0,0.0,0.0,0,32.3699836730957,31.269990921020508,32.1199836730957,41.07998275756836,43.00998306274414,46.49998474121094,0.383988,7,253,253,253,253,253,253,1,0.15283875167369843,9.104394912719727,-0.6712917685508728,0.0,1.0,0.0,48.13019943237305,48.13019943237305,0.6087239384651184,47.87900161743164,47.8489990234375,47.72700119018555,47.87900161743164,47.71200180053711,47.86399841308594,0,1
10249.84,-1.7082622686969202,-1.4460113684283655,0.8773298263549805,-1.684047047291891,-1.537772003804342,4.6051483154296875,0.0,0.0,0.0,0.0,0.0,0.0,0.0,0.0,0.0,0.0,0.0,0.0,-2.354744154141422,0.6520188587493864,0.13804257416430613,0.010076233655080018,-0.15814848574156407,0.0,-27.00934727813764,7.455624913034452,1.5810312033113494,0.0844750615754665,-1.305775827314104,0.0,-1.7082861105548304,-1.4460113684283655,0.8773298263549805,-1.684058968220846,-1.5378559271441858,4.605052947998047,0.0,0.0,-0.0,0.0,0.0,0.0,-2.8784847259521484,0.5201000571250916,0.04259439930319786,0.22875617444515228,-0.19520527124404907,0.07777710258960724,-2.8919355869293213,0.5066491961479187,0.051561642438173294,0.24400658905506134,-0.19520527124404907,0.07472702115774155,-0.043453488294466255,0.5192787091312947,0.7182224719551722,-1.859663533287394,-1.8308955533881568,-0.7047442556675254,0.0,0.0,0.0,0.0,0.0,0.0,-13.020591778461887,1.6365328275914728,-10.043033861777678,3.1538307124340594,-1.3941886236541698,0.045367121437634536,-0.04347273383917641,0.5192784165121069,0.7182211328624131,-1.859662786036688,-1.8308179548429864,-0.7046120734787321,0.0,0.0,0.0,0.0,0.0,0.0,0,32.3699836730957,31.269990921020508,32.1199836730957,41.07998275756836,43.00998306274414,46.49998474121094,0.359496,7,253,253,253,253,253,253,1,0.18580397963523865,9.119379043579102,-0.6742886304855347,0.0,1.0,0.0,48.19097137451172,48.13019943237305,0.5013031363487244,47.87900161743164,47.8489990234375,47.72700119018555,47.87900161743164,47.71200180053711,47.86399841308594,0,1
10249.848,-1.7082622686969202,-1.4460113684283655,0.8773298263549805,-1.684047047291891,-1.537772003804342,4.6051483154296875,0.0,0.0,0.0,0.0,0.0,0.0,0.0,0.0,0.0,0.0,0.0,0.0,-2.354744154141422,0.6520188587493864,0.13804257416430613,0.010076233655080018,-0.15814848574156407,0.0,-27.00934727813764,7.455624913034452,1.5810312033113494,0.0844750615754665,-1.305775827314104,0.0,-1.7082622686969202,-1.4459870497332972,0.8773417472839355,-1.6840828100787562,-1.537891689931051,4.605076789855957,0.0,0.0,-0.0,0.0,0.0,0.0,-2.8941774368286133,0.4999237656593323,0.051561642438173294,0.23790642619132996,-0.19520527124404907,0.07472702115774155,-2.8919355869293213,0.5066491961479187,0.051561642438173294,0.24553163349628448,-0.19520527124404907,0.07472702115774155,-0.0434605018185424,0.5192950238368798,0.7182075933800263,-1.8596903786317847,-1.8308983827291379,-0.7047500123161068,0.0,0.0,0.0,0.0,0.0,0.0,-13.613633422419671,2.7020206380535075,-9.332337909736529,3.1427884530113843,-1.4212855875303132,-0.01467452362105051,-0.04347273383917641,0.5192784165121069,0.7182211328624131,-1.859662786036688,-1.8308179548429864,-0.7046120734787321,0.0,0.0,0.0,0.0,0.0,0.0,0,32.3699836730957,31.269990921020508,32.1199836730957,41.07998275756836,43.00998306274414,46.49998474121094,0.350832,7,253,253,253,253,253,253,1,0.17381662130355835,9.101398468017578,-0.6982633471488953,0.0,1.0,0.0,48.19097137451172,48.13019943237305,0.5013031363487244,47.87900161743164,47.8489990234375,47.72700119018555,47.87900161743164,47.71200180053711,47.86399841308594,0,1
10249.856,-1.7082622686969202,-1.4460113684283655,0.8773298263549805,-1.684047047291891,-1.537772003804342,4.6051483154296875,0.0,0.0,0.0,0.0,0.0,0.0,0.0,0.0,0.0,0.0,0.0,0.0,-2.354744154141422,0.6520188587493864,0.13804257416430613,0.010076233655080018,-0.15814848574156407,0.0,-27.00934727813764,7.455624913034452,1.5810312033113494,0.0844750615754665,-1.305775827314104,0.0,-1.7082985083209437,-1.4460232893573206,0.8773059844970703,-1.684070889149801,-1.5378559271441858,4.605100154876709,0.0,0.0,-0.0,0.0,0.0,0.0,-2.8874518871307373,0.5133746266365051,0.06949612498283386,0.24095650017261505,-0.19063015282154083,0.08387726545333862,-2.8919355869293213,0.5066491961479187,0.051561642438173294,0.24400658905506134,-0.19520527124404907,0.07472702115774155,-0.0434487566326402,0.5192669849655217,0.7182409004933282,-1.8596836671425265,-1.830807886323365,-0.7047762811557211,0.0,0.0,0.0,0.0,0.0,0.0,-13.361932673770896,2.9025544348905665,-8.573615761098795,3.065510875396627,-1.4873061358706836,0.03859429451931088,-0.04347273383917641,0.5192784165121069,0.7182211328624131,-1.859662786036688,-1.8308179548429864,-0.7046120734787321,0.0,0.0,0.0,0.0,0.0,0.0,0,32.3699836730957,31.269990921020508,32.1199836730957,41.07998275756836,43.00998306274414,46.49998474121094,0.411264,7,253,253,253,253,253,253,1,0.17681346833705902,9.113385200500488,-0.6413233876228333,0.0,1.0,0.0,48.13019943237305,48.13019943237305,0.4654926657676697,47.87900161743164,47.8489990234375,47.72700119018555,47.87900161743164,47.71200180053711,47.86399841308594,0,1
10249.864,-1.7082622686969202,-1.4460113684283655,0.8773298263549805,-1.684047047291891,-1.537772003804342,4.6051483154296875,0.0,0.0,0.0,0.0,0.0,0.0,0.0,0.0,0.0,0.0,0.0,0.0,-2.354744154141422,0.6520188587493864,0.13804257416430613,0.010076233655080018,-0.15814848574156407,0.0,-27.00934727813764,7.455624913034452,1.5810312033113494,0.0844750615754665,-1.305775827314104,0.0,-1.7082145849811,-1.445975128804342,0.8773660659790039,-1.684070889149801,-1.5378559271441858,4.605076789855957,0.0,0.0,-0.0,0.0,0.0,0.0,-2.8874518871307373,0.5021655559539795,0.05604526400566101,0.2562069296836853,-0.19520527124404907,0.07167693227529526,-2.8919355869293213,0.5066491961479187,0.051561642438173294,0.24400658905506134,-0.19520527124404907,0.07472702115774155,-0.04348646888593909,0.5193056480487737,0.7181890137843332,-1.8596460524739122,-1.8309636303753816,-0.7046548667678563,0.0,0.0,0.0,0.0,0.0,0.0,-13.487587616215626,2.7112974826203216,-9.661274822025929,3.358411089100248,-1.4189576717434893,-0.0353832679489041,-0.04347273383917641,0.5192784165121069,0.7182211328624131,-1.859662786036688,-1.8308179548429864,-0.7046120734787321,0.0,0.0,0.0,0.0,0.0,0.0,0,32.3699836730957,31.269990921020508,32.1199836730957,41.07998275756836,43.00998306274414,46.49998474121094,0.415548,7,253,253,253,253,253,253,1,0.17081978917121887,9.11038875579834,-0.6922696828842163,0.0,1.0,0.0,48.13019943237305,48.13019943237305,0.5729187726974487,47.87900161743164,47.8489990234375,47.72700119018555,47.87900161743164,47.71200180053711,47.86399841308594,0,1
10249.872,-1.7082622686969202,-1.4460113684283655,0.8773298263549805,-1.684047047291891,-1.537772003804342,4.6051483154296875,0.0,0.0,0.0,0.0,0.0,0.0,0.0,0.0,0.0,0.0,0.0,0.0,-2.354744154141422,0.6520188587493864,0.13804257416430613,0.010076233655080018,-0.15814848574156407,0.0,-27.00934727813764,7.455624913034452,1.5810312033113494,0.0844750615754665,-1.305775827314104,0.0,-1.7083223501788538,-1.4459994474994105,0.8773298263549805,-1.6840828100787562,-1.5378802458392542,4.605112552642822,0.0,0.0,-0.0,0.0,0.0,0.0,-2.8852102756500244,0.5133746266365051,0.0807051807641983,0.24400658905506134,-0.19368022680282593,0.09150247275829315,-2.8919355869293213,0.5066491961479187,0.051561642438173294,0.24400658905506134,-0.19520527124404907,0.07472702115774155,-0.043431647094224216,0.5192875769993384,0.7182193556397476,-1.859757825783274,-1.8307975456030166,-0.7047701719807178,0.0,0.0,0.0,0.0,0.0,0.0,-13.181855538968051,3.300114121234409,-7.956972437771438,3.012980214276528,-1.4977419201297173,0.12021971095469702,-0.04347273383917641,0.5192784165121069,0.7182211328624131,-1.859662786036688,-1.8308179548429864,-0.7046120734787321,0.0,0.0,0.0,0.0,0.0,0.0,0,32.3699836730957,31.269990921020508,32.1199836730957,41.07998275756836,43.00998306274414,46.49998474121094,0.417324,7,253,253,253,253,253,253,1,0.16182926297187805,9.089410781860352,-0.6982633471488953,0.0,1.0,0.0,48.13019943237305,48.13019943237305,0.5729187726974487,47.87900161743164,47.8489990234375,47.72700119018555,47.87900161743164,47.71200180053711,47.86399841308594,0,1
10249.88,-1.7082622686969202,-1.4460113684283655,0.8773298263549805,-1.684047047291891,-1.537772003804342,4.6051483154296875,0.0,0.0,0.0,0.0,0.0,0.0,0.0,0.0,0.0,0.0,0.0,0.0,-2.354744154141422,0.6520188587493864,0.13804257416430613,0.010076233655080018,-0.15814848574156407,0.0,-27.00934727813764,7.455624913034452,1.5810312033113494,0.0844750615754665,-1.305775827314104,0.0,-1.7082622686969202,-1.4460471312152308,0.8773536682128906,-1.684070889149801,-1.5378320852862757,4.605088233947754,0.0,0.0,-0.0,0.0,0.0,0.0,-2.8964192867279053,0.5066491961479187,0.06052888557314873,0.23485633730888367,-0.19368022680282593,0.07777710258960724,-2.8919355869293213,0.5066491961479187,0.051561642438173294,0.24400658905506134,-0.19520527124404907,0.07472702115774155,-0.043470212343987485,0.5192605564578706,0.7182313373712079,-1.8596348770306466,-1.8308626734132096,-0.7047231215161721,0.0,0.0,0.0,0.0,0.0,0.0,-13.659096474807905,2.8439201503687226,-8.811387045987784,3.0441454947853055,-1.4439462539339145,-0.0027864972539079456,-0.04347273383917641,0.5192784165121069,0.7182211328624131,-1.859662786036688,-1.8308179548429864,-0.7046120734787321,0.0,0.0,0.0,0.0,0.0,0.0,0,32.3699836730957,31.269990921020508,32.1199836730957,41.07998275756836,43.00998306274414,46.49998474121094,0.374928,7,253,253,253,253,253,253,1,0.14684507250785828,9.125372886657715,-0.7102506756782532,0.0,1.0,0.0,48.19097137451172,48.13019943237305,0.5729187726974487,47.87900161743164,47.8489990234375,47.72700119018555,47.87900161743164,47.71200180053711,47.86399841308594,0,1
10249.887999999999,-1.7082622686969202,-1.4460113684283655,0.8773298263549805,-1.684047047291891,-1.537772003804342,4.6051483154296875,0.0,0.0,0.0,0.0,0.0,0.0,0.0,0.0,0.0,0.0,0.0,0.0,-2.354744154141422,0.6520188587493864,0.13804257416430613,0.010076233655080018,-0.15814848574156407,0.0,-27.00934727813764,7.455624913034452,1.5810312033113494,0.0844750615754665,-1.305775827314104,0.0,-1.7082861105548304,-1.4459870497332972,0.8773417472839355,-1.6841066519366663,-1.5379155317889612,4.605100154876709,0.0,0.0,-0.0,0.0,0.0,0.0,-2.8829684257507324,0.5156164169311523,0.05604526400566101,0.25468188524246216,-0.19215518236160278,0.06710181385278702,-2.8919355869293213,0.5066491961479187,0.051561642438173294,0.24400658905506134,-0.19520527124404907,0.07472702115774155,-0.04344616436931678,0.5192959324626035,0.7182105421306437,-1.8597352984278916,-1.8308415314903261,-0.7047948395841885,0.0,0.0,0.0,0.0,0.0,0.0,-13.427375782060317,2.26165052584701,-9.898105877616603,3.37727502827795,-1.4084550238830313,-0.08128877453594714,-0.04347273383917641,0.5192784165121069,0.7182211328624131,-1.859662786036688,-1.8308179548429864,-0.7046120734787321,0.0,0.0,0.0,0.0,0.0,0.0,0,32.3699836730957,31.269990921020508,32.1199836730957,41.07998275756836,43.00998306274414,46.49998474121094,0.305112,7,253,253,253,253,253,253,1,0.16182926297187805,9.137359619140625,-0.6952664852142334,0.0,1.0,0.0,48.19097137451172,48.13019943237305,0.4654926657676697,47.87900161743164,47.8489990234375,47.72700119018555,47.87900161743164,47.71200180053711,47.86399841308594,0,1
10249.895999999999,-1.7082622686969202,-1.4460113684283655,0.8773298263549805,-1.684047047291891,-1.537772003804342,4.6051483154296875,0.0,0.0,0.0,0.0,0.0,0.0,0.0,0.0,0.0,0.0,0.0,0.0,-2.354744154141422,0.6520188587493864,0.13804257416430613,0.010076233655080018,-0.15814848574156407,0.0,-27.00934727813764,7.455624913034452,1.5810312033113494,0.0844750615754665,-1.305775827314104,0.0,-1.7082985083209437,-1.4459994474994105,0.8773298263549805,-1.6840947310077112,-1.5378559271441858,4.605064868927002,0.0,0.0,-0.0,0.0,0.0,0.0,-2.8986611366271973,0.5066491961479187,0.05828707292675972,0.253156840801239,-0.19673031568527222,0.07015189528465271,-2.8919355869293213,0.5066491961479187,0.051561642438173294,0.24400658905506134,-0.19520527124404907,0.07472702115774155,-0.043446012468119646,0.5192868200591065,0.7182208979156582,-1.8596707641929922,-1.830859037302109,-0.7047664426722213,0.0,0.0,0.0,0.0,0.0,0.0,-13.79872263776559,2.7047894435027064,-9.519817246335972,3.3123566941269336,-1.4137402707099291,-0.052933427402465656,-0.04347273383917641,0.5192784165121069,0.7182211328624131,-1.859662786036688,-1.8308179548429864,-0.7046120734787321,0.0,0.0,0.0,0.0,0.0,0.0,0,32.3699836730957,31.269990921020508,32.1199836730957,41.07998275756836,43.00998306274414,46.49998474121094,0.38706,7,253,253,253,253,253,253,1,0.17681346833705902,9.143353462219238,-0.6772854924201965,0.0,1.0,0.0,48.13019943237305,48.13019943237305,0.4296875,47.87900161743164,47.8489990234375,47.72700119018555,47.87900161743164,47.71200180053711,47.86399841308594,0,1
10249.903999999999,-1.7082622686969202,-1.4460113684283655,0.8773298263549805,-1.684047047291891,-1.537772003804342,4.6051483154296875,0.0,0.0,0.0,0.0,0.0,0.0,0.0,0.0,0.0,0.0,0.0,0.0,-2.354744154141422,0.6520188587493864,0.13804257416430613,0.010076233655080018,-0.15814848574156407,0.0,-27.00934727813764,7.455624913034452,1.5810312033113494,0.0844750615754665,-1.305775827314104,0.0,-1.7082503477679651,-1.4460113684283655,0.8773179054260254,-1.684070889149801,-1.537891689931051,4.605064868927002,0.0,0.0,-0.0,0.0,0.0,0.0,-2.90090274810791,0.49319833517074585,0.06501250714063644,0.24095650017261505,-0.19063015282154083,0.06252668797969818,-2.8919355869293213,0.5066491961479187,0.051561642438173294,0.24400658905506134,-0.19520527124404907,0.07472702115774155,-0.04346947288786697,0.5192744228829846,0.7182293355807982,-1.8596457463278953,-1.8308992999229619,-0.7047836184683307,0.0,0.0,0.0,0.0,0.0,0.0,-14.13222541107976,3.507068386971909,-8.432760231484743,3.056276061437978,-1.4110351830030785,-0.16217546024348486,-0.04347273383917641,0.5192784165121069,0.7182211328624131,-1.859662786036688,-1.8308179548429864,-0.7046120734787321,0.0,0.0,0.0,0.0,0.0,0.0,0,32.3699836730957,31.269990921020508,32.1199836730957,41.07998275756836,43.00998306274414,46.49998474121094,0.358656,7,253,253,253,253,253,253,1,0.18880081176757812,9.107391357421875,-0.6862759590148926,0.0,1.0,0.0,48.13019943237305,48.13019943237305,0.6445291042327881,47.87900161743164,47.803001403808594,47.72700119018555,47.90999984741211,47.68199920654297,47.86399841308594,0,1
10249.912,-1.7082622686969202,-1.4460113684283655,0.8773298263549805,-1.684047047291891,-1.537772003804342,4.6051483154296875,0.0,0.0,0.0,0.0,0.0,0.0,0.0,0.0,0.0,0.0,0.0,0.0,-2.354744154141422,0.6520188587493864,0.13804257416430613,0.010076233655080018,-0.15814848574156407,0.0,-27.00934727813764,7.455624913034452,1.5810312033113494,0.0844750615754665,-1.305775827314104,0.0,-1.7082741896258753,-1.4459994474994105,0.8773536682128906,-1.6840947310077112,-1.5379036108600062,4.6050286293029785,0.0,0.0,-0.0,0.0,0.0,0.0,-2.8852102756500244,0.5223418474197388,0.06501250714063644,0.23180626332759857,-0.19215518236160278,0.06405173242092133,-2.8919355869293213,0.5066491961479187,0.051561642438173294,0.24400658905506134,-0.19520527124404907,0.07472702115774155,-0.04345405975071895,0.5192901987012224,0.7182099405166955,-1.8596652685443635,-1.8309327031097915,-0.7047937381154469,0.0,0.0,0.0,0.0,0.0,0.0,-13.546744944118407,2.4907464266771586,-8.76390069815364,3.0222857371541143,-1.360034667614007,-0.10439468748070116,-0.04347273383917641,0.5192784165121069,0.7182211328624131,-1.859662786036688,-1.8308179548429864,-0.7046120734787321,0.0,0.0,0.0,0.0,0.0,0.0,0,32.3699836730957,31.269990921020508,32.1199836730957,41.07998275756836,43.00998306274414,46.49998474121094,0.360444,7,253,253,253,253,253,253,1,0.1917976588010788,9.116382598876953,-0.6892728209495544,0.0,1.0,0.0,48.19097137451172,48.13019943237305,0.4296875,47.83399963378906,47.803001403808594,47.72700119018555,47.90999984741211,47.68199920654297,47.86399841308594,0,1
10249.92,-1.7082622686969202,-1.4460113684283655,0.8773298263549805,-1.684047047291891,-1.537772003804342,4.6051483154296875,0.0,0.0,0.0,0.0,0.0,0.0,0.0,0.0,0.0,0.0,0.0,0.0,-2.354744154141422,0.6520188587493864,0.13804257416430613,0.010076233655080018,-0.15814848574156407,0.0,-27.00934727813764,7.455624913034452,1.5810312033113494,0.0844750615754665,-1.305775827314104,0.0,-1.708226505910055,-1.445975128804342,0.8773179054260254,-1.6841066519366663,-1.5378201643573206,4.605040550231934,0.0,0.0,-0.0,0.0,0.0,0.0,-2.8919355869293213,0.5044073462486267,0.049319833517074585,0.24705667793750763,-0.1891051083803177,0.07930213958024979,-2.8919355869293213,0.5066491961479187,0.051561642438173294,0.24400658905506134,-0.19520527124404907,0.07472702115774155,-0.043484569597206424,0.5192967820923908,0.7182155246748272,-1.8595518076902398,-1.8309415695989035,-0.7047154211591015,0.0,0.0,0.0,0.0,0.0,0.0,-13.532533141611086,2.4181125490223185,-9.852450644554068,3.28577777475224,-1.5011586639924028,-0.013695264452043929,-0.04347273383917641,0.5192784165121069,0.7182211328624131,-1.859662786036688,-1.8308179548429864,-0.7046120734787321,0.0,0.0,0.0,0.0,0.0,0.0,0,32.3699836730957,31.269990921020508,32.1199836730957,41.07998275756836,43.00998306274414,46.49998474121094,0.357204,7,253,253,253,253,253,253,1,0.18280713260173798,9.08042049407959,-0.6623013019561768,0.0,1.0,0.0,48.19097137451172,48.13019943237305,0.4654926657676697,47.83399963378906,47.803001403808594,47.72700119018555,47.90999984741211,47.68199920654297,47.86399841308594,0,1
10249.928,-1.7082622686969202,-1.4460113684283655,0.8773298263549805,-1.684047047291891,-1.537772003804342,4.6051483154296875,0.0,0.0,0.0,0.0,0.0,0.0,0.0,0.0,0.0,0.0,0.0,0.0,-2.354744154141422,0.6520188587493864,0.13804257416430613,0.010076233655080018,-0.15814848574156407,0.0,-27.00934727813764,7.455624913034452,1.5810312033113494,0.0844750615754665,-1.305775827314104,0.0,-1.7082741896258753,-1.445975128804342,0.8773417472839355,-1.6840828100787562,-1.537891689931051,4.605064868927002,0.0,0.0,-0.0,0.0,0.0,0.0,-2.90090274810791,0.5088909864425659,0.051561642438173294,0.2501067519187927,-0.1997803896665573,0.06862685084342957,-2.8919355869293213,0.5066491961479187,0.051561642438173294,0.24400658905506134,-0.19520527124404907,0.07472702115774155,-0.043453284473747876,0.5193029671767351,0.7182015290495422,-1.8597008709070695,-1.8309083167930562,-0.7047472721658347,0.0,0.0,0.0,0.0,0.0,0.0,-13.811715798491212,2.382588163016484,-9.898970039983064,3.33697894366454,-1.383212424394273,-0.045056394743099755,-0.04347273383917641,0.5192784165121069,0.7182211328624131,-1.859662786036688,-1.8308179548429864,-0.7046120734787321,0.0,0.0,0.0,0.0,0.0,0.0,0,32.3699836730957,31.269990921020508,32.1199836730957,41.07998275756836,43.00998306274414,46.49998474121094,0.333204,7,253,253,253,253,253,253,1,0.1798103004693985,9.116382598876953,-0.6952664852142334,0.0,1.0,0.0,48.19097137451172,48.13019943237305,0.537108302116394,47.83399963378906,47.803001403808594,47.72700119018555,47.90999984741211,47.68199920654297,47.86399841308594,0,1
10249.936,-1.7082622686969202,-1.4460113684283655,0.8773298263549805,-1.684047047291891,-1.537772003804342,4.6051483154296875,0.0,0.0,0.0,0.0,0.0,0.0,0.0,0.0,0.0,0.0,0.0,0.0,-2.354744154141422,0.6520188587493864,0.13804257416430613,0.010076233655080018,-0.15814848574156407,0.0,-27.00934727813764,7.455624913034452,1.5810312033113494,0.0844750615754665,-1.305775827314104,0.0,-1.7082741896258753,-1.4460113684283655,0.8773417472839355,-1.684058968220846,-1.537891689931051,4.605052947998047,0.0,0.0,-0.0,0.0,0.0,0.0,-2.8807265758514404,0.4819892644882202,0.049319833517074585,0.24095650017261505,-0.19368022680282593,0.07015189528465271,-2.8919355869293213,0.5066491961479187,0.051561642438173294,0.24400658905506134,-0.19520527124404907,0.07472702115774155,-0.04345641340677938,0.5192802961929038,0.7182169709513744,-1.859683704167266,-1.830913587808153,-0.704762976288567,0.0,0.0,0.0,0.0,0.0,0.0,-13.38583472293635,3.170338578802144,-9.190210536423903,3.1553188264011185,-1.395270993451182,-0.048827193566475906,-0.04347273383917641,0.5192784165121069,0.7182211328624131,-1.859662786036688,-1.8308179548429864,-0.7046120734787321,0.0,0.0,0.0,0.0,0.0,0.0,0,32.3699836730957,31.269990921020508,32.1199836730957,41.07998275756836,43.00998306274414,46.49998474121094,0.355248,7,253,253,253,253,253,253,1,0.14984191954135895,9.11038875579834,-0.656307578086853,0.0,1.0,0.0,48.19097137451172,48.13019943237305,0.5013031363487244,47.83399963378906,47.803001403808594,47.72700119018555,47.90999984741211,47.68199920654297,47.86399841308594,0,1
10249.944,-1.7082622686969202,-1.4460113684283655,0.8773298263549805,-1.684047047291891,-1.537772003804342,4.6051483154296875,0.0,0.0,0.0,0.0,0.0,0.0,0.0,0.0,0.0,0.0,0.0,0.0,-2.354744154141422,0.6520188587493864,0.13804257416430613,0.010076233655080018,-0.15814848574156407,0.0,-27.00934727813764,7.455624913034452,1.5810312033113494,0.0844750615754665,-1.305775827314104,0.0,-1.708226505910055,-1.445975128804342,0.8773179054260254,-1.6840828100787562,-1.5378559271441858,4.605088233947754,0.0,0.0,-0.0,0.0,0.0,0.0,-2.8807265758514404,0.5133746266365051,0.07397975027561188,0.24400658905506134,-0.19063015282154083,0.07930213958024979,-2.8919355869293213,0.5066491961479187,0.051561642438173294,0.24400658905506134,-0.19368022680282593,0.07472702115774155,-0.043481652940956426,0.519296346591914,0.7182124641877516,-1.8596296095765266,-1.8309067534343662,-0.7047106691925842,0.0,0.0,0.0,0.0,0.0,0.0,-13.264825007844605,3.049616016936781,-8.383621596725236,3.07419435739081,-1.4555816456295627,0.008628662726146208,-0.04347273383917641,0.5192784165121069,0.7182211328624131,-1.859662786036688,-1.8308179548429864,-0.7046120734787321,0.0,0.0,0.0,0.0,0.0,0.0,0,32.3699836730957,31.269990921020508,32.1199836730957,41.07998275756836,43.00998306274414,46.49998474121094,0.352656,7,253,253,253,253,253,253,1,0.18880081176757812,9.089410781860352,-0.713247537612915,0.0,1.0,0.0,48.13019943237305,48.13019943237305,0.5729187726974487,47.83399963378906,47.803001403808594,47.742000579833984,47.90999984741211,47.68199920654297,47.86399841308594,0,1
10249.952,-1.7082622686969202,-1.4460113684283655,0.8773298263549805,-1.684047047291891,-1.537772003804342,4.6051483154296875,0.0,0.0,0.0,0.0,0.0,0.0,0.0,0.0,0.0,0.0,0.0,0.0,-2.354744154141422,0.6520188587493864,0.13804257416430613,0.010076233655080018,-0.15814848574156407,0.0,-27.00934727813764,7.455624913034452,1.5810312033113494,0.0844750615754665,-1.305775827314104,0.0,-1.7082622686969202,-1.4460471312152308,0.8773417472839355,-1.6840828100787562,-1.5378440062152308,4.605124473571777,0.0,0.0,-0.0,0.0,0.0,0.0,-2.8784847259521484,0.48647287487983704,0.02914353646337986,0.2363813817501068,-0.18758006393909454,0.0732019767165184,-2.8919355869293213,0.5066491961479187,0.051561642438173294,0.24400658905506134,-0.19368022680282593,0.0732019767165184,-0.043469575404318936,0.5192580496449749,0.7182382456212947,-1.859656815879576,-1.8308110116724055,-0.7047438592460578,0.0,0.0,0.0,0.0,0.0,0.0,-13.257438292562611,2.2396641231929855,-10.422516693448713,3.2639794500726933,-1.4532869487754079,-0.05110415038556042,-0.04347273383917641,0.5192784165121069,0.7182211328624131,-1.859662786036688,-1.8308179548429864,-0.7046120734787321,0.0,0.0,0.0,0.0,0.0,0.0,0,32.3699836730957,31.269990921020508,32.1199836730957,41.07998275756836,43.00998306274414,46.49998474121094,0.38142,7,253,253,253,253,253,253,1,0.15283875167369843,9.116382598876953,-0.6772854924201965,0.0,1.0,0.0,48.19097137451172,48.13019943237305,0.537108302116394,47.83399963378906,47.803001403808594,47.742000579833984,47.90999984741211,47.68199920654297,47.86399841308594,0,1
10249.96,-1.7082622686969202,-1.4460113684283655,0.8773298263549805,-1.684047047291891,-1.537772003804342,4.6051483154296875,0.0,0.0,0.0,0.0,0.0,0.0,0.0,0.0,0.0,0.0,0.0,0.0,-2.354744154141422,0.6520188587493864,0.13804257416430613,0.010076233655080018,-0.15814848574156407,0.0,-27.00934727813764,7.455624913034452,1.5810312033113494,0.0844750615754665,-1.305775827314104,0.0,-1.7082622686969202,-1.4460352102862757,0.8773179054260254,-1.6840947310077112,-1.5378802458392542,4.605052947998047,0.0,0.0,-0.0,0.0,0.0,0.0,-2.8874518871307373,0.5066491961479187,0.022418105974793434,0.24553163349628448,-0.19063015282154083,0.06557676941156387,-2.8919355869293213,0.5066491961479187,0.051561642438173294,0.24400658905506134,-0.19520527124404907,0.0732019767165184,-0.04346626472346254,0.5192602955352906,0.7182444783183511,-1.8596106442708356,-1.830873829714952,-0.7048252258639078,0.0,0.0,0.0,0.0,0.0,0.0,-13.496025762047193,1.3033106488957005,-11.558022530768818,3.503350189818519,-1.4194837108275276,-0.1004078739846428,-0.04347273383917641,0.5192784165121069,0.7182211328624131,-1.859662786036688,-1.8308179548429864,-0.7046120734787321,0.0,0.0,0.0,0.0,0.0,0.0,0,32.3699836730957,31.269990921020508,32.1199836730957,41.07998275756836,43.00998306274414,46.49998474121094,0.358236,7,253,253,253,253,253,253,1,0.16182926297187805,9.11038875579834,-0.6922696828842163,0.0,1.0,0.0,48.19097137451172,48.13019943237305,0.4296875,47.83399963378906,47.803001403808594,47.742000579833984,47.90999984741211,47.68199920654297,47.86399841308594,0,1
10249.967999999999,-1.7082622686969202,-1.4460113684283655,0.8773298263549805,-1.684047047291891,-1.537772003804342,4.6051483154296875,0.0,0.0,0.0,0.0,0.0,0.0,0.0,0.0,0.0,0.0,0.0,0.0,-2.354744154141422,0.6520188587493864,0.13804257416430613,0.010076233655080018,-0.15814848574156407,0.0,-27.00934727813764,7.455624913034452,1.5810312033113494,0.0844750615754665,-1.305775827314104,0.0,-1.70823842683901,-1.4459870497332972,0.8773660659790039,-1.6840828100787562,-1.5378440062152308,4.605076789855957,0.0,0.0,-0.0,0.0,0.0,0.0,-2.8807265758514404,0.5133746266365051,0.06052888557314873,0.23333130776882172,-0.19520527124404907,0.0762520581483841,-2.8919355869293213,0.5066491961479187,0.051561642438173294,0.24400658905506134,-0.19520527124404907,0.0762520581483841,-0.043476085238709564,0.5192994210995239,0.7181965972228895,-1.8596474781267676,-1.8309299488964983,-0.7046739467501554,0.0,0.0,0.0,0.0,0.0,0.0,-13.20131306835805,2.561764688456187,-8.905624279583312,3.0496025977110333,-1.3928208840039846,0.02034274803420206,-0.04347273383917641,0.5192784165121069,0.7182211328624131,-1.859662786036688,-1.8308179548429864,-0.7046120734787321,0.0,0.0,0.0,0.0,0.0,0.0,0,32.3699836730957,31.269990921020508,32.1199836730957,41.07998275756836,43.00998306274414,46.49998474121094,0.316536,7,253,253,253,253,253,253,1,0.1558355987071991,9.12237548828125,-0.6742886304855347,0.0,1.0,0.0,48.19097137451172,48.13019943237305,0.5729187726974487,47.83399963378906,47.803001403808594,47.742000579833984,47.90999984741211,47.68199920654297,47.8489990234375,0,1
10249.975999999999,-1.7082622686969202,-1.4460113684283655,0.8773298263549805,-1.684047047291891,-1.537772003804342,4.6051483154296875,0.0,0.0,0.0,0.0,0.0,0.0,0.0,0.0,0.0,0.0,0.0,0.0,-2.354744154141422,0.6520188587493864,0.13804257416430613,0.010076233655080018,-0.15814848574156407,0.0,-27.00934727813764,7.455624913034452,1.5810312033113494,0.0844750615754665,-1.305775827314104,0.0,-1.7082861105548304,-1.4460113684283655,0.8773536682128906,-1.684047047291891,-1.5379036108600062,4.605052947998047,0.0,0.0,-0.0,0.0,0.0,0.0,-2.8852102756500244,0.5223418474197388,0.04707802087068558,0.2592569887638092,-0.19825536012649536,0.08082718402147293,-2.8919355869293213,0.5066491961479187,0.051561642438173294,0.24400658905506134,-0.19520527124404907,0.07472702115774155,-0.0434489107830831,0.5192830954538245,0.7182100179249921,-1.8597195124196004,-1.8309184242382837,-0.7047563711336167,0.0,0.0,0.0,0.0,0.0,0.0,-13.135169740335538,1.631890115600054,-10.749447135475641,3.526471792793196,-1.4398593686757069,0.07209638822425905,-0.04347273383917641,0.5192784165121069,0.7182211328624131,-1.859662786036688,-1.8308179548429864,-0.7046120734787321,0.0,0.0,0.0,0.0,0.0,0.0,0,32.3699836730957,31.269990921020508,32.1199836730957,41.07998275756836,43.00998306274414,46.49998474121094,0.371976,7,253,253,253,253,253,253,1,0.14984191954135895,9.104394912719727,-0.6652981042861938,0.0,1.0,0.0,48.19097137451172,48.13019943237305,0.6445291042327881,47.83399963378906,47.803001403808594,47.742000579833984,47.90999984741211,47.68199920654297,47.8489990234375,0,1
10249.984,-1.7082622686969202,-1.4460113684283655,0.8773298263549805,-1.684047047291891,-1.537772003804342,4.6051483154296875,0.0,0.0,0.0,0.0,0.0,0.0,0.0,0.0,0.0,0.0,0.0,0.0,-2.354744154141422,0.6520188587493864,0.13804257416430613,0.010076233655080018,-0.15814848574156407,0.0,-27.00934727813764,7.455624913034452,1.5810312033113494,0.0844750615754665,-1.305775827314104,0.0,-1.7082741896258753,-1.4459994474994105,0.8773179054260254,-1.684058968220846,-1.5378440062152308,4.605124473571777,0.0,0.0,-0.0,0.0,0.0,0.0,-2.8852102756500244,0.4819892644882202,0.04035259038209915,0.24858170747756958,-0.19825536012649536,0.06252668797969818,-2.8919355869293213,0.5066491961479187,0.051561642438173294,0.24400658905506134,-0.19520527124404907,0.07472702115774155,-0.04345996761650076,0.5192832861949471,0.7182218641786887,-1.859699271692396,-1.8308293599469592,-0.7047038491574065,0.0,0.0,0.0,0.0,0.0,0.0,-13.541781964653678,2.814434337707062,-9.994706930855843,3.3383269743811503,-1.3432132817901334,-0.08764167210871351,-0.04347273383917641,0.5192784165121069,0.7182211328624131,-1.859662786036688,-1.8308179548429864,-0.7046120734787321,0.0,0.0,0.0,0.0,0.0,0.0,0,32.3699836730957,31.269990921020508,32.1199836730957,41.07998275756836,43.00998306274414,46.49998474121094,0.42456,7,253,253,253,253,253,253,1,0.18280713260173798,9.113385200500488,-0.6922696828842163,0.0,1.0,0.0,48.13019943237305,48.13019943237305,0.5729187726974487,47.83399963378906,47.86399841308594,47.742000579833984,47.87900161743164,47.68199920654297,47.8489990234375,0,1
10249.992,-1.7082622686969202,-1.4460113684283655,0.8773298263549805,-1.684047047291891,-1.537772003804342,4.6051483154296875,0.0,0.0,0.0,0.0,0.0,0.0,0.0,0.0,0.0,0.0,0.0,0.0,-2.354744154141422,0.6520188587493864,0.13804257416430613,0.010076233655080018,-0.15814848574156407,0.0,-27.00934727813764,7.455624913034452,1.5810312033113494,0.0844750615754665,-1.305775827314104,0.0,-1.7082861105548304,-1.4460352102862757,0.8773059844970703,-1.684070889149801,-1.5378802458392542,4.605052947998047,0.0,0.0,-0.0,0.0,0.0,0.0,-2.8852102756500244,0.48871469497680664,0.051561642438173294,0.23790642619132996,-0.19520527124404907,0.07167693227529526,-2.8919355869293213,0.5066491961479187,0.051561642438173294,0.24400658905506134,-0.19520527124404907,0.07472702115774155,-0.04345423316930224,0.5192587907633279,0.7182469187924782,-1.8596430067697935,-1.830861587249517,-0.7048225333003408,0.0,0.0,0.0,0.0,0.0,0.0,-13.4527880087651,3.054415405170913,-9.095798096973061,3.1152753820907133,-1.3924108925184633,-0.030687012357957275,-0.04347273383917641,0.5192784165121069,0.7182211328624131,-1.859662786036688,-1.8308179548429864,-0.7046120734787321,0.0,0.0,0.0,0.0,0.0,0.0,0,32.3699836730957,31.269990921020508,32.1199836730957,41.07998275756836,43.00998306274414,46.49998474121094,0.373284,7,253,253,253,253,253,253,1,0.15883243083953857,9.107391357421875,-0.6742886304855347,0.0,1.0,0.0,48.19097137451172,48.13019943237305,0.537108302116394,47.83399963378906,47.86399841308594,47.742000579833984,47.87900161743164,47.68199920654297,47.8489990234375,0,1
10250.0,-1.7082622686969202,-1.4460113684283655,0.8773298263549805,-1.684047047291891,-1.537772003804342,4.6051483154296875,0.0,0.0,0.0,0.0,0.0,0.0,0.0,0.0,0.0,0.0,0.0,0.0,-2.354744154141422,0.6520188587493864,0.13804257416430613,0.010076233655080018,-0.15814848574156407,0.0,-27.00934727813764,7.455624913034452,1.5810312033113494,0.0844750615754665,-1.305775827314104,0.0,-1.7082741896258753,-1.4459994474994105,0.8773298263549805,-1.6840828100787562,-1.5378320852862757,4.605064868927002,0.0,0.0,-0.0,0.0,0.0,0.0,-2.8784847259521484,0.4797474443912506,0.051561642438173294,0.2592569887638092,-0.19368022680282593,0.08082718402147293,-2.8919355869293213,0.5066491961479187,0.051561642438173294,0.24400658905506134,-0.19520527124404907,0.07472702115774155,-0.04346059369564175,0.5192859396373104,0.7182194459484168,-1.8596362765035832,-1.8308846768704372,-0.7047243276611308,0.0,0.0,0.0,0.0,0.0,0.0,-13.171942361497928,3.2306773520080316,-9.5667973190675,3.3659462969957215,-1.4700981361880299,0.035972841934007425,-0.04347273383917641,0.5192784165121069,0.7182211328624131,-1.859662786036688,-1.8308179548429864,-0.7046120734787321,0.0,0.0,0.0,0.0,0.0,0.0,0,32.3699836730957,31.269990921020508,32.1199836730957,41.07998275756836,43.00998306274414,46.49998474121094,0.391704,7,253,253,253,253,253,253,1,0.2157723605632782,9.077423095703125,-0.6952664852142334,0.0,1.0,0.0,48.13019943237305,48.13019943237305,0.5729187726974487,47.83399963378906,47.86399841308594,47.742000579833984,47.87900161743164,47.68199920654297,47.8489990234375,0,1
10250.008,-1.7082622686969202,-1.4460113684283655,0.8773298263549805,-1.684047047291891,-1.537772003804342,4.6051483154296875,0.0,0.0,0.0,0.0,0.0,0.0,0.0,0.0,0.0,0.0,0.0,0.0,-2.354744154141422,0.6520188587493864,0.13804257416430613,0.010076233655080018,-0.15814848574156407,0.0,-27.00934727813764,7.455624913034452,1.5810312033113494,0.0844750615754665,-1.305775827314104,0.0,-1.7082861105548304,-1.4460232893573206,0.8773298263549805,-1.6840828100787562,-1.5378440062152308,4.605136394500732,0.0,0.0,-0.0,0.0,0.0,0.0,-2.8941774368286133,0.49768194556236267,0.03138534724712372,0.2501067519187927,-0.19673031568527222,0.07015189528465271,-2.8919355869293213,0.5066491961479187,0.051561642438173294,0.24400658905506134,-0.19520527124404907,0.07472702115774155,-0.04345548267039317,0.5192714940394525,0.7182315517270933,-1.8596985400377986,-1.8307862254365037,-0.7047369560200183,0.0,0.0,0.0,0.0,0.0,0.0,-13.599896887277197,1.9461812377411591,-10.941567194016631,3.467011359461833,-1.411092685041445,-0.04008013426177145,-0.04347273383917641,0.5192784165121069,0.7182211328624131,-1.859662786036688,-1.8308179548429864,-0.7046120734787321,0.0,0.0,0.0,0.0,0.0,0.0,0,32.3699836730957,31.269990921020508,32.1199836730957,41.07998275756836,43.00998306274414,46.49998474121094,0.321396,7,253,253,253,253,253,253,1,0.1917976588010788,9.086413383483887,-0.6982633471488953,0.0,1.0,0.0,48.13019943237305,48.13019943237305,0.5729187726974487,47.83399963378906,47.86399841308594,47.742000579833984,47.87900161743164,47.68199920654297,47.8489990234375,0,1
10250.016,-1.7082622686969202,-1.4460113684283655,0.8773298263549805,-1.684047047291891,-1.537772003804342,4.6051483154296875,0.0,0.0,0.0,0.0,0.0,0.0,0.0,0.0,0.0,0.0,0.0,0.0,-2.354744154141422,0.6520188587493864,0.13804257416430613,0.010076233655080018,-0.15814848574156407,0.0,-27.00934727813764,7.455624913034452,1.5810312033113494,0.0844750615754665,-1.305775827314104,0.0,-1.7082622686969202,-1.445975128804342,0.8773298263549805,-1.684058968220846,-1.5378440062152308,4.605052947998047,0.0,0.0,-0.0,0.0,0.0,0.0,-2.8852102756500244,0.5223418474197388,0.017934484407305717,0.2394314706325531,-0.19520527124404907,0.06252668797969818,-2.8919355869293213,0.5066491961479187,0.051561642438173294,0.24400658905506134,-0.19520527124404907,0.07472702115774155,-0.043463722038908345,0.519300358786919,0.7182040591222986,-1.8596531753109762,-1.830935555362984,-0.704691040668349,0.0,0.0,0.0,0.0,0.0,0.0,-13.349897077331176,0.6093645659334241,-11.98422843321548,3.5112787557736582,-1.353703811606192,-0.08405694765582893,-0.04347273383917641,0.5192784165121069,0.7182211328624131,-1.859662786036688,-1.8308179548429864,-0.7046120734787321,0.0,0.0,0.0,0.0,0.0,0.0,0,32.3699836730957,31.269990921020508,32.1199836730957,41.07998275756836,43.00998306274414,46.49998474121094,0.360744,7,253,253,253,253,253,253,1,0.17381662130355835,9.104394912719727,-0.6443202495574951,0.0,1.0,0.0,48.13019943237305,48.06943130493164,0.6087239384651184,47.83399963378906,47.86399841308594,47.742000579833984,47.87900161743164,47.68199920654297,47.8489990234375,0,1
10250.024,-1.7082622686969202,-1.4460113684283655,0.8773298263549805,-1.684047047291891,-1.537772003804342,4.6051483154296875,0.0,0.0,0.0,0.0,0.0,0.0,0.0,0.0,0.0,0.0,0.0,0.0,-2.354744154141422,0.6520188587493864,0.13804257416430613,0.010076233655080018,-0.15814848574156407,0.0,-27.00934727813764,7.455624913034452,1.5810312033113494,0.0844750615754665,-1.305775827314104,0.0,-1.7082741896258753,-1.4459870497332972,0.877377986907959,-1.6840227285968226,-1.5378201643573206,4.6050286293029785,0.0,0.0,-0.0,0.0,0.0,0.0,-2.8874518871307373,0.5066491961479187,0.06052888557314873,0.2501067519187927,-0.19673031568527222,0.06710181385278702,-2.8919355869293213,0.5066491961479187,0.051561642438173294,0.24400658905506134,-0.19520527124404907,0.0762520581483841,-0.04345913992338432,0.5193033961914211,0.7181836645321276,-1.8596754110016516,-1.8309930625146509,-0.7046139824761006,0.0,0.0,0.0,0.0,0.0,0.0,-13.542589672200775,2.7679195065393576,-9.282846656458132,3.2585851455835413,-1.3733972033831217,-0.06152900278330082,-0.04347273383917641,0.5192784165121069,0.7182211328624131,-1.859662786036688,-1.8308179548429864,-0.7046120734787321,0.0,0.0,0.0,0.0,0.0,0.0,0,32.3699836730957,31.269990921020508,32.1199836730957,41.07998275756836,43.00998306274414,46.49998474121094,0.37374,7,253,253,253,253,253,253,1,0.1798103004693985,9.119379043579102,-0.6593044400215149,0.0,1.0,0.0,48.13019943237305,48.13019943237305,0.6087239384651184,47.83399963378906,47.86399841308594,47.757999420166016,47.87900161743164,47.68199920654297,47.8489990234375,0,1
10250.032,-1.7082622686969202,-1.4460113684283655,0.8773298263549805,-1.684047047291891,-1.537772003804342,4.6051483154296875,0.0,0.0,0.0,0.0,0.0,0.0,0.0,0.0,0.0,0.0,0.0,0.0,-2.354744154141422,0.6520188587493864,0.13804257416430613,0.010076233655080018,-0.15814848574156407,0.0,-27.00934727813764,7.455624913034452,1.5810312033113494,0.0844750615754665,-1.305775827314104,0.0,-1.7082622686969202,-1.4460471312152308,0.8773417472839355,-1.6840947310077112,-1.5378802458392542,4.605100154876709,0.0,0.0,-0.0,0.0,0.0,0.0,-2.8807265758514404,0.4999237656593323,0.024659916758537292,0.24858170747756958,-0.20130543410778046,0.06252668797969818,-2.8919355869293213,0.5066491961479187,0.051561642438173294,0.24553163349628448,-0.19520527124404907,0.07472702115774155,-0.0434666089400482,0.519257756210703,0.7182396743777371,-1.859655467773445,-1.830831091528231,-0.7047977335291878,0.0,0.0,0.0,0.0,0.0,0.0,-13.254929487005946,1.5693204887952348,-11.367488864086774,3.521451482495526,-1.3127777747555411,-0.05011042193644565,-0.04347273383917641,0.5192784165121069,0.7182211328624131,-1.859662786036688,-1.8308179548429864,-0.7046120734787321,0.0,0.0,0.0,0.0,0.0,0.0,0,32.3699836730957,31.269990921020508,32.1199836730957,41.07998275756836,43.00998306274414,46.49998474121094,0.36114,7,253,253,253,253,253,253,1,0.14684507250785828,9.128369331359863,-0.6862759590148926,0.0,1.0,0.0,48.19097137451172,48.13019943237305,0.6087239384651184,47.83399963378906,47.86399841308594,47.757999420166016,47.87900161743164,47.68199920654297,47.8489990234375,0,1
10250.039999999999,-1.7082622686969202,-1.4460113684283655,0.8773298263549805,-1.684047047291891,-1.537772003804342,4.6051483154296875,0.0,0.0,0.0,0.0,0.0,0.0,0.0,0.0,0.0,0.0,0.0,0.0,-2.354744154141422,0.6520188587493864,0.13804257416430613,0.010076233655080018,-0.15814848574156407,0.0,-27.00934727813764,7.455624913034452,1.5810312033113494,0.0844750615754665,-1.305775827314104,0.0,-1.7082741896258753,-1.4459870497332972,0.8773417472839355,-1.6840828100787562,-1.5378559271441858,4.605088233947754,0.0,0.0,-0.0,0.0,0.0,0.0,-2.8762428760528564,0.5021655559539795,0.035868968814611435,0.24858170747756958,-0.19825536012649536,0.08692734688520432,-2.8919355869293213,0.5066491961479187,0.051561642438173294,0.2424815446138382,-0.19520527124404907,0.07472702115774155,-0.04345723520083301,0.5192958797448444,0.7182076604022072,-1.8596867650167963,-1.8308752815054392,-0.7047162586473033,0.0,0.0,0.0,0.0,0.0,0.0,-12.811789938198284,1.867124958767674,-10.703889226075479,3.4175062113202666,-1.4451350260827336,0.13476918362164642,-0.04347273383917641,0.5192784165121069,0.7182211328624131,-1.859662786036688,-1.8308179548429864,-0.7046120734787321,0.0,0.0,0.0,0.0,0.0,0.0,0,32.3699836730957,31.269990921020508,32.1199836730957,41.07998275756836,43.00998306274414,46.49998474121094,0.358704,7,253,253,253,253,253,253,1,0.13485772907733917,9.134363174438477,-0.6922696828842163,0.0,1.0,0.0,48.13019943237305,48.13019943237305,0.5013031363487244,47.83399963378906,47.86399841308594,47.757999420166016,47.87900161743164,47.68199920654297,47.8489990234375,0,1
10250.047999999999,-1.7082622686969202,-1.4460113684283655,0.8773298263549805,-1.684047047291891,-1.537772003804342,4.6051483154296875,0.0,0.0,0.0,0.0,0.0,0.0,0.0,0.0,0.0,0.0,0.0,0.0,-2.354744154141422,0.6520188587493864,0.13804257416430613,0.010076233655080018,-0.15814848574156407,0.0,-27.00934727813764,7.455624913034452,1.5810312033113494,0.0844750615754665,-1.305775827314104,0.0,-1.7082503477679651,-1.4459994474994105,0.8773298263549805,-1.6841066519366663,-1.5378559271441858,4.605052947998047,0.0,0.0,-0.0,0.0,0.0,0.0,-2.8852102756500244,0.5021655559539795,0.04483621194958687,0.22875617444515228,-0.19520527124404907,0.07930213958024979,-2.8919355869293213,0.5066491961479187,0.051561642438173294,0.24400658905506134,-0.19520527124404907,0.0762520581483841,-0.04347101794547015,0.5192847759722417,0.718222394609264,-1.859603688858521,-1.8309034449623387,-0.7047648322437298,0.0,0.0,0.0,0.0,0.0,0.0,-13.255003908051727,2.35304357155927,-9.52268292116956,3.0820527574228707,-1.416043099592022,0.04123160667850052,-0.04347273383917641,0.5192784165121069,0.7182211328624131,-1.859662786036688,-1.8308179548429864,-0.7046120734787321,0.0,0.0,0.0,0.0,0.0,0.0,0,32.3699836730957,31.269990921020508,32.1199836730957,41.07998275756836,43.00998306274414,46.49998474121094,0.356364,7,253,253,253,253,253,253,1,0.16482611000537872,9.113385200500488,-0.6593044400215149,0.0,1.0,0.0,48.13019943237305,48.13019943237305,0.5729187726974487,47.83399963378906,47.86399841308594,47.757999420166016,47.87900161743164,47.696998596191406,47.87900161743164,0,1
10250.055999999999,-1.7082622686969202,-1.4460113684283655,0.8773298263549805,-1.684047047291891,-1.537772003804342,4.6051483154296875,0.0,0.0,0.0,0.0,0.0,0.0,0.0,0.0,0.0,0.0,0.0,0.0,-2.354744154141422,0.6520188587493864,0.13804257416430613,0.010076233655080018,-0.15814848574156407,0.0,-27.00934727813764,7.455624913034452,1.5810312033113494,0.0844750615754665,-1.305775827314104,0.0,-1.7082861105548304,-1.4459870497332972,0.8772940635681152,-1.684047047291891,-1.537891689931051,4.605088233947754,0.0,0.0,-0.0,0.0,0.0,0.0,-2.8941774368286133,0.5066491961479187,0.051561642438173294,0.24553163349628448,-0.1997803896665573,0.08387726545333862,-2.8919355869293213,0.5066491961479187,0.051561642438173294,0.24553163349628448,-0.19520527124404907,0.0762520581483841,-0.04344949703394729,0.519286141290088,0.7182248392971763,-1.8597167687811604,-1.8308601103596995,-0.7047654337374245,0.0,0.0,0.0,0.0,0.0,0.0,-13.387021102098052,2.4168718767383153,-9.710040597094244,3.2612985294222114,-1.440082619463261,0.09070373208934576,-0.04347273383917641,0.5192784165121069,0.7182211328624131,-1.859662786036688,-1.8308179548429864,-0.7046120734787321,0.0,0.0,0.0,0.0,0.0,0.0,0,32.3699836730957,31.269990921020508,32.1199836730957,41.07998275756836,43.00998306274414,46.49998474121094,0.3684,7,253,253,253,253,253,253,1,0.15283875167369843,9.095404624938965,-0.7162443399429321,0.0,1.0,0.0,48.19097137451172,48.13019943237305,0.5013031363487244,47.83399963378906,47.86399841308594,47.757999420166016,47.87900161743164,47.696998596191406,47.87900161743164,0,1
10250.064,-1.7082622686969202,-1.4460113684283655,0.8773298263549805,-1.684047047291891,-1.537772003804342,4.6051483154296875,0.0,0.0,0.0,0.0,0.0,0.0,0.0,0.0,0.0,0.0,0.0,0.0,-2.354744154141422,0.6520188587493864,0.13804257416430613,0.010076233655080018,-0.15814848574156407,0.0,-27.00934727813764,7.455624913034452,1.5810312033113494,0.0844750615754665,-1.305775827314104,0.0,-1.7082622686969202,-1.4460232893573206,0.877377986907959,-1.684058968220846,-1.5378440062152308,4.605064868927002,0.0,0.0,-0.0,0.0,0.0,0.0,-2.8964192867279053,0.5111327767372131,0.06277069449424744,0.24553163349628448,-0.1860550194978714,0.06710181385278702,-2.8919355869293213,0.5066491961479187,0.051561642438173294,0.24400658905506134,-0.19520527124404907,0.07167693227529526,-0.0434664915486296,0.5192802294573782,0.7182066049938934,-1.8596626408109211,-1.8309229795047772,-0.704686919504944,0.0,0.0,0.0,0.0,0.0,0.0,-13.921053272721226,2.7755990208971024,-9.094535559614656,3.178935727003601,-1.465962301715343,-0.14206446022214003,-0.04347273383917641,0.5192784165121069,0.7182211328624131,-1.859662786036688,-1.8308179548429864,-0.7046120734787321,0.0,0.0,0.0,0.0,0.0,0.0,0,32.3699836730957,31.269990921020508,32.1199836730957,41.07998275756836,43.00998306274414,46.49998474121094,0.354372,7,253,253,253,253,253,253,1,0.17681346833705902,9.128369331359863,-0.6742886304855347,0.0,1.0,0.0,48.19097137451172,48.13019943237305,0.5729187726974487,47.83399963378906,47.78799819946289,47.757999420166016,47.89500045776367,47.696998596191406,47.87900161743164,0,1
10250.072,-1.7082622686969202,-1.4460113684283655,0.8773298263549805,-1.684047047291891,-1.537772003804342,4.6051483154296875,0.0,0.0,0.0,0.0,0.0,0.0,0.0,0.0,0.0,0.0,0.0,0.0,-2.354744154141422,0.6520188587493864,0.13804257416430613,0.010076233655080018,-0.15814848574156407,0.0,-27.00934727813764,7.455624913034452,1.5810312033113494,0.0844750615754665,-1.305775827314104,0.0,-1.7082503477679651,-1.4460352102862757,0.8773660659790039,-1.6840828100787562,-1.5378320852862757,4.605088233947754,0.0,0.0,-0.0,0.0,0.0,0.0,-2.8964192867279053,0.5088909864425659,0.053803451359272,0.26078203320503235,-0.2028304785490036,0.06252668797969818,-2.8919355869293213,0.5066491961479187,0.051561642438173294,0.24705667793750763,-0.19520527124404907,0.0732019767165184,-0.04347501716824763,0.5192700534469163,0.7182211188138043,-1.8596302581231539,-1.830879559072656,-0.7047074536143918,0.0,0.0,0.0,0.0,0.0,0.0,-13.757955527651058,2.420581115058153,-10.086729800374716,3.4684432115958783,-1.335751552137985,-0.07264177048865815,-0.04347273383917641,0.5192784165121069,0.7182211328624131,-1.859662786036688,-1.8308179548429864,-0.7046120734787321,0.0,0.0,0.0,0.0,0.0,0.0,0,32.3699836730957,31.269990921020508,32.1199836730957,41.07998275756836,43.00998306274414,46.49998474121094,0.386172,7,253,253,253,253,253,253,1,0.18280713260173798,9.107391357421875,-0.719241201877594,0.0,1.0,0.0,48.19097137451172,48.13019943237305,0.4654926657676697,47.83399963378906,47.78799819946289,47.757999420166016,47.89500045776367,47.696998596191406,47.87900161743164,0,1
10250.08,-1.7082622686969202,-1.4460113684283655,0.8773298263549805,-1.684047047291891,-1.537772003804342,4.6051483154296875,0.0,0.0,0.0,0.0,0.0,0.0,0.0,0.0,0.0,0.0,0.0,0.0,-2.354744154141422,0.6520188587493864,0.13804257416430613,0.010076233655080018,-0.15814848574156407,0.0,-27.00934727813764,7.455624913034452,1.5810312033113494,0.0844750615754665,-1.305775827314104,0.0,-1.7082985083209437,-1.4460352102862757,0.8773179054260254,-1.684058968220846,-1.5378320852862757,4.605100154876709,0.0,0.0,-0.0,0.0,0.0,0.0,-2.8807265758514404,0.5111327767372131,0.05604526400566101,0.24705667793750763,-0.19215518236160278,0.08540230989456177,-2.8919355869293213,0.5066491961479187,0.051561642438173294,0.24553163349628448,-0.19520527124404907,0.07777710258960724,-0.043451395191709964,0.5192621788282747,0.7182400785389531,-1.8596745017536727,-1.8308139106037438,-0.7047426530979266,0.0,0.0,0.0,0.0,0.0,0.0,-13.087094239903118,2.394574749931937,-9.567426384385742,3.2517032454498502,-1.4841137425951492,0.07281602646160837,-0.04347273383917641,0.5192784165121069,0.7182211328624131,-1.859662786036688,-1.8308179548429864,-0.7046120734787321,0.0,0.0,0.0,0.0,0.0,0.0,0,32.3699836730957,31.269990921020508,32.1199836730957,41.07998275756836,43.00998306274414,46.49998474121094,0.38196,7,253,253,253,253,253,253,1,0.17381662130355835,9.104394912719727,-0.7282317280769348,0.0,1.0,0.0,48.19097137451172,48.13019943237305,0.4654926657676697,47.83399963378906,47.78799819946289,47.757999420166016,47.89500045776367,47.696998596191406,47.87900161743164,0,1
10250.088,-1.7082622686969202,-1.4460113684283655,0.8773298263549805,-1.684047047291891,-1.537772003804342,4.6051483154296875,0.0,0.0,0.0,0.0,0.0,0.0,0.0,0.0,0.0,0.0,0.0,0.0,-2.354744154141422,0.6520188587493864,0.13804257416430613,0.010076233655080018,-0.15814848574156407,0.0,-27.00934727813764,7.455624913034452,1.5810312033113494,0.0844750615754665,-1.305775827314104,0.0,-1.7082741896258753,-1.4459870497332972,0.8773417472839355,-1.6840828100787562,-1.5378201643573206,4.605100154876709,0.0,0.0,-0.0,0.0,0.0,0.0,-2.8807265758514404,0.49544012546539307,0.07173793762922287,0.23790642619132996,-0.19368022680282593,0.07167693227529526,-2.8919355869293213,0.5066491961479187,0.051561642438173294,0.2424815446138382,-0.19520527124404907,0.0762520581483841,-0.04346015907110159,0.5192962175340117,0.7182077275060904,-1.859671120813185,-1.8308612914779747,-0.7046781830642067,0.0,0.0,0.0,0.0,0.0,0.0,-13.401361068398634,3.60422707030869,-7.958494590851684,2.969356042246624,-1.3888854227455074,-0.03823434859370003,-0.04347273383917641,0.5192784165121069,0.7182211328624131,-1.859662786036688,-1.8308179548429864,-0.7046120734787321,0.0,0.0,0.0,0.0,0.0,0.0,0,32.3699836730957,31.269990921020508,32.1199836730957,41.07998275756836,43.00998306274414,46.49998474121094,0.3174,7,253,253,253,253,253,253,1,0.18280713260173798,9.12237548828125,-0.6832791566848755,0.0,1.0,0.0,48.13019943237305,48.13019943237305,0.5729187726974487,47.83399963378906,47.78799819946289,47.757999420166016,47.89500045776367,47.696998596191406,47.87900161743164,0,1
10250.096,-1.7082622686969202,-1.4460113684283655,0.8773298263549805,-1.684047047291891,-1.537772003804342,4.6051483154296875,0.0,0.0,0.0,0.0,0.0,0.0,0.0,0.0,0.0,0.0,0.0,0.0,-2.354744154141422,0.6520188587493864,0.13804257416430613,0.010076233655080018,-0.15814848574156407,0.0,-27.00934727813764,7.455624913034452,1.5810312033113494,0.0844750615754665,-1.305775827314104,0.0,-1.7082503477679651,-1.4460585753070276,0.8773179054260254,-1.6841066519366663,-1.5378440062152308,4.605052947998047,0.0,0.0,-0.0,0.0,0.0,0.0,-2.8852102756500244,0.5088909864425659,0.04259439930319786,0.23028121888637543,-0.19215518236160278,0.0732019767165184,-2.8919355869293213,0.5066491961479187,0.051561642438173294,0.24400658905506134,-0.19520527124404907,0.0762520581483841,-0.04347742649864082,0.5192456137217517,0.7182579279572356,-1.859550600330484,-1.8308613016644824,-0.7048193815669691,0.0,0.0,0.0,0.0,0.0,0.0,-13.36095746758246,2.051239584523205,-9.854181764582846,3.140506376014963,-1.4119961989631145,-0.026371799641263575,-0.04347273383917641,0.5192784165121069,0.7182211328624131,-1.859662786036688,-1.8308179548429864,-0.7046120734787321,0.0,0.0,0.0,0.0,0.0,0.0,0,32.3699836730957,31.269990921020508,32.1199836730957,41.07998275756836,43.00998306274414,46.49998474121094,0.354672,7,253,253,253,253,253,253,1,0.14984191954135895,9.104394912719727,-0.7102506756782532,0.0,1.0,0.0,48.13019943237305,48.13019943237305,0.537108302116394,47.83399963378906,47.78799819946289,47.696998596191406,47.89500045776367,47.696998596191406,47.87900161743164,0,1
10250.104,-1.7082622686969202,-1.4460113684283655,0.8773298263549805,-1.684047047291891,-1.537772003804342,4.6051483154296875,0.0,0.0,0.0,0.0,0.0,0.0,0.0,0.0,0.0,0.0,0.0,0.0,-2.354744154141422,0.6520188587493864,0.13804257416430613,0.010076233655080018,-0.15814848574156407,0.0,-27.00934727813764,7.455624913034452,1.5810312033113494,0.0844750615754665,-1.305775827314104,0.0,-1.7082861105548304,-1.4460113684283655,0.8773660659790039,-1.684058968220846,-1.537891689931051,4.605088233947754,0.0,0.0,-0.0,0.0,0.0,0.0,-2.8852102756500244,0.5201000571250916,0.07173793762922287,0.2257061004638672,-0.20130543410778046,0.0762520581483841,-2.8919355869293213,0.5066491961479187,0.051561642438173294,0.24400658905506134,-0.19520527124404907,0.07472702115774155,-0.043449526806713705,0.5192857976260454,0.7182058855358187,-1.8597393216624893,-1.8308810613451587,-0.7047323036130945,0.0,0.0,0.0,0.0,0.0,0.0,-13.268314212553683,2.8116044051758493,-8.100852002906015,2.8817900221015638,-1.336947602964393,0.05417989421023166,-0.04347273383917641,0.5192784165121069,0.7182211328624131,-1.859662786036688,-1.8308179548429864,-0.7046120734787321,0.0,0.0,0.0,0.0,0.0,0.0,0,32.3699836730957,31.269990921020508,32.1199836730957,41.07998275756836,43.00998306274414,46.49998474121094,0.388596,7,253,253,253,253,253,253,1,0.19479449093341827,9.104394912719727,-0.6982633471488953,0.0,1.0,0.0,48.19097137451172,48.13019943237305,0.537108302116394,47.83399963378906,47.78799819946289,47.696998596191406,47.89500045776367,47.696998596191406,47.87900161743164,0,1
10250.112,-1.7082622686969202,-1.4460113684283655,0.8773298263549805,-1.684047047291891,-1.537772003804342,4.6051483154296875,0.0,0.0,0.0,0.0,0.0,0.0,0.0,0.0,0.0,0.0,0.0,0.0,-2.354744154141422,0.6520188587493864,0.13804257416430613,0.010076233655080018,-0.15814848574156407,0.0,-27.00934727813764,7.455624913034452,1.5810312033113494,0.0844750615754665,-1.305775827314104,0.0,-1.7082741896258753,-1.4460113684283655,0.8773660659790039,-1.6840828100787562,-1.5378802458392542,4.605088233947754,0.0,0.0,-0.0,0.0,0.0,0.0,-2.8941774368286133,0.5044073462486267,0.053803451359272,0.24553163349628448,-0.1860550194978714,0.07015189528465271,-2.8919355869293213,0.5066491961479187,0.051561642438173294,0.24400658905506134,-0.19520527124404907,0.07472702115774155,-0.043456645558876864,0.5192854857121041,0.7182089003573884,-1.8597038311658016,-1.8308762464582315,-0.7047393415956515,0.0,0.0,0.0,0.0,0.0,0.0,-13.797676429625932,2.6354771479842576,-9.521072946483347,3.23140281510832,-1.4810272062723184,-0.11301771403123541,-0.04347273383917641,0.5192784165121069,0.7182211328624131,-1.859662786036688,-1.8308179548429864,-0.7046120734787321,0.0,0.0,0.0,0.0,0.0,0.0,0,32.3699836730957,31.269990921020508,32.1199836730957,41.07998275756836,43.00998306274414,46.49998474121094,0.390888,7,253,253,253,253,253,253,1,0.18580397963523865,9.101398468017578,-0.6952664852142334,0.0,1.0,0.0,48.19097137451172,48.13019943237305,0.5013031363487244,47.83399963378906,47.78799819946289,47.696998596191406,47.89500045776367,47.696998596191406,47.87900161743164,0,1
10250.119999999999,-1.7082622686969202,-1.4460113684283655,0.8773298263549805,-1.684047047291891,-1.537772003804342,4.6051483154296875,0.0,0.0,0.0,0.0,0.0,0.0,0.0,0.0,0.0,0.0,0.0,0.0,-2.354744154141422,0.6520188587493864,0.13804257416430613,0.010076233655080018,-0.15814848574156407,0.0,-27.00934727813764,7.455624913034452,1.5810312033113494,0.0844750615754665,-1.305775827314104,0.0,-1.7082985083209437,-1.445963207875387,0.8773179054260254,-1.6840828100787562,-1.5378802458392542,4.605016708374023,0.0,0.0,-0.0,0.0,0.0,0.0,-2.8874518871307373,0.4999237656593323,0.053803451359272,0.2501067519187927,-0.19520527124404907,0.06710181385278702,-2.8919355869293213,0.5066491961479187,0.051561642438173294,0.24400658905506134,-0.19215518236160278,0.07472702115774155,-0.04344124696532485,0.5193066715666714,0.7182063542435114,-1.8596725834577668,-1.8309319902903602,-0.7047727186931613,0.0,0.0,0.0,0.0,0.0,0.0,-13.55880040630696,2.733924936462073,-9.567735544450198,3.2927181582010188,-1.3889673685236517,-0.07151799500052329,-0.04347273383917641,0.5192784165121069,0.7182211328624131,-1.859662786036688,-1.8308179548429864,-0.7046120734787321,0.0,0.0,0.0,0.0,0.0,0.0,0,32.3699836730957,31.269990921020508,32.1199836730957,41.07998275756836,43.00998306274414,46.49998474121094,0.38604,7,253,253,253,253,253,253,1,0.18280713260173798,9.089410781860352,-0.6802822947502136,0.0,1.0,0.0,48.19097137451172,48.13019943237305,0.5729187726974487,47.83399963378906,47.78799819946289,47.696998596191406,47.89500045776367,47.696998596191406,47.87900161743164,0,1
10250.127999999999,-1.7082622686969202,-1.4460113684283655,0.8773298263549805,-1.684047047291891,-1.537772003804342,4.6051483154296875,0.0,0.0,0.0,0.0,0.0,0.0,0.0,0.0,0.0,0.0,0.0,0.0,-2.354744154141422,0.6520188587493864,0.13804257416430613,0.010076233655080018,-0.15814848574156407,0.0,-27.00934727813764,7.455624913034452,1.5810312033113494,0.0844750615754665,-1.305775827314104,0.0,-1.7082861105548304,-1.4459870497332972,0.8772940635681152,-1.6840828100787562,-1.537867848073141,4.605052947998047,0.0,0.0,-0.0,0.0,0.0,0.0,-2.8852102756500244,0.4999237656593323,0.05828707292675972,0.24705667793750763,-0.19063015282154083,0.06862685084342957,-2.8919355869293213,0.5066491961479187,0.051561642438173294,0.24400658905506134,-0.19520527124404907,0.07472702115774155,-0.04345143542292244,0.5192865133107933,0.7182293740486775,-1.8596495864513953,-1.8308753651675072,-0.7047881939597486,0.0,0.0,0.0,0.0,0.0,0.0,-13.547530947640967,2.918117752771846,-9.189399992028596,3.210479830022627,-1.4229117684360253,-0.08618956242289584,-0.04347273383917641,0.5192784165121069,0.7182211328624131,-1.859662786036688,-1.8308179548429864,-0.7046120734787321,0.0,0.0,0.0,0.0,0.0,0.0,0,32.3699836730957,31.269990921020508,32.1199836730957,41.07998275756836,43.00998306274414,46.49998474121094,0.329904,7,253,253,253,253,253,253,1,0.17381662130355835,9.116382598876953,-0.7012601494789124,0.0,1.0,0.0,48.13019943237305,48.13019943237305,0.6087239384651184,47.83399963378906,47.78799819946289,47.696998596191406,47.89500045776367,47.696998596191406,47.86399841308594,0,1
10250.136,-1.7082622686969202,-1.4460113684283655,0.8773298263549805,-1.684047047291891,-1.537772003804342,4.6051483154296875,0.0,0.0,0.0,0.0,0.0,0.0,0.0,0.0,0.0,0.0,0.0,0.0,-2.354744154141422,0.6520188587493864,0.13804257416430613,0.010076233655080018,-0.15814848574156407,0.0,-27.00934727813764,7.455624913034452,1.5810312033113494,0.0844750615754665,-1.305775827314104,0.0,-1.7082503477679651,-1.4460471312152308,0.8773660659790039,-1.6840828100787562,-1.537867848073141,4.605040550231934,0.0,0.0,-0.0,0.0,0.0,0.0,-2.8896937370300293,0.5178582668304443,0.05604526400566101,0.2623070776462555,-0.18452998995780945,0.07930213958024979,-2.8919355869293213,0.5066491961479187,0.051561642438173294,0.24400658905506134,-0.19520527124404907,0.07472702115774155,-0.0434731200091867,0.5192622901647067,0.7182271156783329,-1.859610142150451,-1.8309242231899634,-0.7047690485351,0.0,0.0,0.0,0.0,0.0,0.0,-13.510726474282915,2.1686765502747143,-10.181495445525616,3.46633255171361,-1.5515356041157964,-0.04160789879415186,-0.04347273383917641,0.5192784165121069,0.7182211328624131,-1.859662786036688,-1.8308179548429864,-0.7046120734787321,0.0,0.0,0.0,0.0,0.0,0.0,0,32.3699836730957,31.269990921020508,32.1199836730957,41.07998275756836,43.00998306274414,46.49998474121094,0.35616,7,253,253,253,253,253,253,1,0.15283875167369843,9.128369331359863,-0.7072538733482361,0.0,1.0,0.0,48.13019943237305,48.13019943237305,0.6445291042327881,47.83399963378906,47.78799819946289,47.696998596191406,47.89500045776367,47.696998596191406,47.86399841308594,0,1
10250.144,-1.7082622686969202,-1.4460113684283655,0.8773298263549805,-1.684047047291891,-1.537772003804342,4.6051483154296875,0.0,0.0,0.0,0.0,0.0,0.0,0.0,0.0,0.0,0.0,0.0,0.0,-2.354744154141422,0.6520188587493864,0.13804257416430613,0.010076233655080018,-0.15814848574156407,0.0,-27.00934727813764,7.455624913034452,1.5810312033113494,0.0844750615754665,-1.305775827314104,0.0,-1.708226505910055,-1.4460113684283655,0.8773179054260254,-1.6840346495257776,-1.537891689931051,4.605076789855957,0.0,0.0,-0.0,0.0,0.0,0.0,-2.903144598007202,0.48871469497680664,0.033627159893512726,0.21808089315891266,-0.19215518236160278,0.06710181385278702,-2.8919355869293213,0.5066491961479187,0.051561642438173294,0.24400658905506134,-0.19063015282154083,0.07472702115774155,-0.043481864336462825,0.5192732375769289,0.7182247856336005,-1.8596532461036475,-1.8309272056171897,-0.7047376389258094,0.0,0.0,0.0,0.0,0.0,0.0,-13.99113625206399,2.510288207716616,-9.620090933493262,2.994870441341317,-1.4024003530937896,-0.10336195769835012,-0.04347273383917641,0.5192784165121069,0.7182211328624131,-1.859662786036688,-1.8308179548429864,-0.7046120734787321,0.0,0.0,0.0,0.0,0.0,0.0,0,32.3699836730957,31.269990921020508,32.1199836730957,41.07998275756836,43.00998306274414,46.49998474121094,0.355068,7,253,253,253,253,253,253,1,0.17381662130355835,9.125372886657715,-0.7222380638122559,0.0,1.0,0.0,48.13019943237305,48.13019943237305,0.5013031363487244,47.83399963378906,47.78799819946289,47.696998596191406,47.87900161743164,47.696998596191406,47.86399841308594,0,1
10250.152,-1.7082622686969202,-1.4460113684283655,0.8773298263549805,-1.684047047291891,-1.537772003804342,4.6051483154296875,0.0,0.0,0.0,0.0,0.0,0.0,0.0,0.0,0.0,0.0,0.0,0.0,-2.354744154141422,0.6520188587493864,0.13804257416430613,0.010076233655080018,-0.15814848574156407,0.0,-27.00934727813764,7.455624913034452,1.5810312033113494,0.0844750615754665,-1.305775827314104,0.0,-1.7083104292498987,-1.4459994474994105,0.8773298263549805,-1.684058968220846,-1.5378440062152308,4.605088233947754,0.0,0.0,-0.0,0.0,0.0,0.0,-2.8941774368286133,0.49319833517074585,0.051561642438173294,0.2501067519187927,-0.19215518236160278,0.06862685084342957,-2.8919355869293213,0.5066491961479187,0.051561642438173294,0.24400658905506134,-0.19368022680282593,0.07472702115774155,-0.04344080756369525,0.5192873037746643,0.7182164301971818,-1.8597158721393274,-1.8308452899841379,-0.7047180742789477,0.0,0.0,0.0,0.0,0.0,0.0,-13.776094060429799,2.90179864371987,-9.56816750511772,3.2859418469112036,-1.4345226519823655,-0.09030786858927871,-0.04347273383917641,0.5192784165121069,0.7182211328624131,-1.859662786036688,-1.8308179548429864,-0.7046120734787321,0.0,0.0,0.0,0.0,0.0,0.0,0,32.3699836730957,31.269990921020508,32.1199836730957,41.07998275756836,43.00998306274414,46.49998474121094,0.385776,7,253,253,253,253,253,253,1,0.17681346833705902,9.098401069641113,-0.7072538733482361,0.0,1.0,0.0,48.19097137451172,48.13019943237305,0.4654926657676697,47.83399963378906,47.78799819946289,47.696998596191406,47.87900161743164,47.696998596191406,47.86399841308594,0,1
10250.16,-1.7082622686969202,-1.4460113684283655,0.8773298263549805,-1.684047047291891,-1.537772003804342,4.6051483154296875,0.0,0.0,0.0,0.0,0.0,0.0,0.0,0.0,0.0,0.0,0.0,0.0,-2.354744154141422,0.6520188587493864,0.13804257416430613,0.010076233655080018,-0.15814848574156407,0.0,-27.00934727813764,7.455624913034452,1.5810312033113494,0.0844750615754665,-1.305775827314104,0.0,-1.7082741896258753,-1.4460113684283655,0.8773417472839355,-1.6840828100787562,-1.5378802458392542,4.605112552642822,0.0,0.0,-0.0,0.0,0.0,0.0,-2.903144598007202,0.5133746266365051,0.049319833517074585,0.23333130776882172,-0.19520527124404907,0.08692734688520432,-2.8919355869293213,0.5066491961479187,0.051561642438173294,0.24553163349628448,-0.19368022680282593,0.07167693227529526,-0.043457341802926826,0.5192805022019319,0.7182199857748224,-1.8597077134473992,-1.830836380053353,-0.7047533907892966,0.0,0.0,0.0,0.0,0.0,0.0,-13.61219628150566,2.1846459088235886,-9.616741634012048,3.1281091447468814,-1.4889944055287396,0.07909943284408179,-0.04347273383917641,0.5192784165121069,0.7182211328624131,-1.859662786036688,-1.8308179548429864,-0.7046120734787321,0.0,0.0,0.0,0.0,0.0,0.0,0,32.3699836730957,31.269990921020508,32.1199836730957,41.07998275756836,43.00998306274414,46.49998474121094,0.358392,7,253,253,253,253,253,253,1,0.14684507250785828,9.119379043579102,-0.6802822947502136,0.0,1.0,0.0,48.13019943237305,48.13019943237305,0.3938823342323303,47.83399963378906,47.78799819946289,47.696998596191406,47.87900161743164,47.696998596191406,47.86399841308594,0,1
10250.168,-1.7082622686969202,-1.4460113684283655,0.8773298263549805,-1.684047047291891,-1.537772003804342,4.6051483154296875,0.0,0.0,0.0,0.0,0.0,0.0,0.0,0.0,0.0,0.0,0.0,0.0,-2.354744154141422,0.6520188587493864,0.13804257416430613,0.010076233655080018,-0.15814848574156407,0.0,-27.00934727813764,7.455624913034452,1.5810312033113494,0.0844750615754665,-1.305775827314104,0.0,-1.7082741896258753,-1.4459870497332972,0.8773417472839355,-1.6840947310077112,-1.537891689931051,4.605064868927002,0.0,0.0,-0.0,0.0,0.0,0.0,-2.8919355869293213,0.5290672779083252,0.06501250714063644,0.253156840801239,-0.19215518236160278,0.06710181385278702,-2.8919355869293213,0.5066491961479187,0.051561642438173294,0.2424815446138382,-0.19520527124404907,0.0732019767165184,-0.04345430771500447,0.5192955908433741,0.7182090900725883,-1.8596858357607209,-1.83089434012681,-0.7047693476868868,0.0,0.0,0.0,0.0,0.0,0.0,-13.665533576564066,2.1991591330259177,-9.566472272705047,3.3199798940083642,-1.4169836761609786,-0.09233332903764421,-0.04347273383917641,0.5192784165121069,0.7182211328624131,-1.859662786036688,-1.8308179548429864,-0.7046120734787321,0.0,0.0,0.0,0.0,0.0,0.0,0,32.3699836730957,31.269990921020508,32.1199836730957,41.07998275756836,43.00998306274414,46.49998474121094,0.318588,7,253,253,253,253,253,253,1,0.15883243083953857,9.12237548828125,-0.7072538733482361,0.0,1.0,0.0,48.19097137451172,48.13019943237305,0.5729187726974487,47.83399963378906,47.78799819946289,47.72700119018555,47.87900161743164,47.696998596191406,47.86399841308594,0,1
10250.176,-1.7082622686969202,-1.4460113684283655,0.8773298263549805,-1.684047047291891,-1.537772003804342,4.6051483154296875,0.0,0.0,0.0,0.0,0.0,0.0,0.0,0.0,0.0,0.0,0.0,0.0,-2.354744154141422,0.6520188587493864,0.13804257416430613,0.010076233655080018,-0.15814848574156407,0.0,-27.00934727813764,7.455624913034452,1.5810312033113494,0.0844750615754665,-1.305775827314104,0.0,-1.7082622686969202,-1.4460113684283655,0.8773179054260254,-1.684047047291891,-1.5378559271441858,4.605076789855957,0.0,0.0,-0.0,0.0,0.0,0.0,-2.8896937370300293,0.49544012546539307,0.06277069449424744,0.26078203320503235,-0.19520527124404907,0.0762520581483841,-2.8919355869293213,0.5066491961479187,0.051561642438173294,0.24400658905506134,-0.19215518236160278,0.07777710258960724,-0.04346621375374057,0.5192751810090119,0.7182264092150933,-1.859657572630056,-1.83088966713228,-0.7047276510669304,0.0,0.0,0.0,0.0,0.0,0.0,-13.528274279976197,3.184743736122277,-9.234788252484005,3.3412790290795074,-1.4515152881805518,-0.00674458738929556,-0.04347273383917641,0.5192784165121069,0.7182211328624131,-1.859662786036688,-1.8308179548429864,-0.7046120734787321,0.0,0.0,0.0,0.0,0.0,0.0,0,32.3699836730957,31.269990921020508,32.1199836730957,41.07998275756836,43.00998306274414,46.49998474121094,0.38022,7,253,253,253,253,253,253,1,0.17081978917121887,9.0924072265625,-0.7042570114135742,0.0,1.0,0.0,48.13019943237305,48.13019943237305,0.5013031363487244,47.83399963378906,47.78799819946289,47.72700119018555,47.87900161743164,47.696998596191406,47.86399841308594,0,1
10250.184,-1.7082622686969202,-1.4460113684283655,0.8773298263549805,-1.684047047291891,-1.537772003804342,4.6051483154296875,0.0,0.0,0.0,0.0,0.0,0.0,0.0,0.0,0.0,0.0,0.0,0.0,-2.354744154141422,0.6520188587493864,0.13804257416430613,0.010076233655080018,-0.15814848574156407,0.0,-27.00934727813764,7.455624913034452,1.5810312033113494,0.0844750615754665,-1.305775827314104,0.0,-1.7082985083209437,-1.4459870497332972,0.8773298263549805,-1.684070889149801,-1.5378559271441858,4.605100154876709,0.0,0.0,-0.0,0.0,0.0,0.0,-2.8807265758514404,0.5156164169311523,0.06052888557314873,0.2424815446138382,-0.18758006393909454,0.08540230989456177,-2.8919355869293213,0.5066491961479187,0.051561642438173294,0.24400658905506134,-0.19215518236160278,0.0762520581483841,-0.04344495156310528,0.5192944446055913,0.718211597753294,-1.8597215102385973,-1.830843112250515,-0.7047205995956608,0.0,0.0,0.0,0.0,0.0,0.0,-13.144889283950857,2.4442569257872178,-9.2364406233451,3.162471777465268,-1.5115283113871882,0.04452412586664587,-0.04347273383917641,0.5192784165121069,0.7182211328624131,-1.859662786036688,-1.8308179548429864,-0.7046120734787321,0.0,0.0,0.0,0.0,0.0,0.0,0,32.3699836730957,31.269990921020508,32.1199836730957,41.07998275756836,43.00998306274414,46.49998474121094,0.351168,7,253,253,253,253,253,253,1,0.19479449093341827,9.098401069641113,-0.6862759590148926,0.0,1.0,0.0,48.19097137451172,48.13019943237305,0.5729187726974487,47.83399963378906,47.78799819946289,47.72700119018555,47.87900161743164,47.696998596191406,47.86399841308594,0,1
10250.192,-1.7082622686969202,-1.4460113684283655,0.8773298263549805,-1.684047047291891,-1.537772003804342,4.6051483154296875,0.0,0.0,0.0,0.0,0.0,0.0,0.0,0.0,0.0,0.0,0.0,0.0,-2.354744154141422,0.6520188587493864,0.13804257416430613,0.010076233655080018,-0.15814848574156407,0.0,-27.00934727813764,7.455624913034452,1.5810312033113494,0.0844750615754665,-1.305775827314104,0.0,-1.7083104292498987,-1.4460471312152308,0.8773417472839355,-1.684058968220846,-1.5378559271441858,4.605100154876709,0.0,0.0,-0.0,0.0,0.0,0.0,-2.8964192867279053,0.5066491961479187,0.035868968814611435,0.24705667793750763,-0.20130543410778046,0.07015189528465271,-2.8919355869293213,0.5066491961479187,0.051561642438173294,0.24400658905506134,-0.19825536012649536,0.07472702115774155,-0.04344360020878219,0.5192599321432108,0.7182352298759431,-1.8597111444343921,-1.8308122335238324,-0.7047583878154275,0.0,0.0,0.0,0.0,0.0,0.0,-13.590496978341733,1.8320607691483966,-10.751906008998986,3.4198390644846106,-1.3715284206636953,-0.01119149701244978,-0.04347273383917641,0.5192784165121069,0.7182211328624131,-1.859662786036688,-1.8308179548429864,-0.7046120734787321,0.0,0.0,0.0,0.0,0.0,0.0,0,32.3699836730957,31.269990921020508,32.1199836730957,41.07998275756836,43.00998306274414,46.49998474121094,0.356124,7,253,253,253,253,253,253,1,0.1558355987071991,9.128369331359863,-0.6772854924201965,0.0,1.0,0.0,48.19097137451172,48.13019943237305,0.5013031363487244,47.83399963378906,47.78799819946289,47.72700119018555,47.87900161743164,47.696998596191406,47.86399841308594,0,1
10250.199999999999,-1.7082622686969202,-1.4460113684283655,0.8773298263549805,-1.684047047291891,-1.537772003804342,4.6051483154296875,0.0,0.0,0.0,0.0,0.0,0.0,0.0,0.0,0.0,0.0,0.0,0.0,-2.354744154141422,0.6520188587493864,0.13804257416430613,0.010076233655080018,-0.15814848574156407,0.0,-27.00934727813764,7.455624913034452,1.5810312033113494,0.0844750615754665,-1.305775827314104,0.0,-1.70823842683901,-1.4459994474994105,0.8773660659790039,-1.684058968220846,-1.537867848073141,4.605040550231934,0.0,0.0,-0.0,0.0,0.0,0.0,-2.903144598007202,0.49768194556236267,0.06949612498283386,0.22875617444515228,-0.19368022680282593,0.0732019767165184,-2.8919355869293213,0.5066491961479187,0.051561642438173294,0.24400658905506134,-0.19520527124404907,0.07472702115774155,-0.043475210889607555,0.5192913756808155,0.7181998660026674,-1.859642811306852,-1.8309757730683274,-0.7046986387235452,0.0,0.0,0.0,0.0,0.0,0.0,-13.984118502675122,3.5582222713877414,-7.865281016694798,2.866461501168353,-1.42327631212117,-0.05442902129954009,-0.04347273383917641,0.5192784165121069,0.7182211328624131,-1.859662786036688,-1.8308179548429864,-0.7046120734787321,0.0,0.0,0.0,0.0,0.0,0.0,0,32.3699836730957,31.269990921020508,32.1199836730957,41.07998275756836,43.00998306274414,46.49998474121094,0.409596,7,253,253,253,253,253,253,1,0.15283875167369843,9.131366729736328,-0.6712917685508728,0.0,1.0,0.0,48.13019943237305,48.13019943237305,0.537108302116394,47.83399963378906,47.78799819946289,47.72700119018555,47.87900161743164,47.696998596191406,47.86399841308594,0,1
10250.207999999999,-1.7082622686969202,-1.4460113684283655,0.8773298263549805,-1.684047047291891,-1.537772003804342,4.6051483154296875,0.0,0.0,0.0,0.0,0.0,0.0,0.0,0.0,0.0,0.0,0.0,0.0,-2.354744154141422,0.6520188587493864,0.13804257416430613,0.010076233655080018,-0.15814848574156407,0.0,-27.00934727813764,7.455624913034452,1.5810312033113494,0.0844750615754665,-1.305775827314104,0.0,-1.7082503477679651,-1.445963207875387,0.8773179054260254,-1.684058968220846,-1.5378802458392542,4.605076789855957,0.0,0.0,-0.0,0.0,0.0,0.0,-2.90090274810791,0.5021655559539795,0.04035259038209915,0.2501067519187927,-0.1860550194978714,0.06710181385278702,-2.8919355869293213,0.5066491961479187,0.051561642438173294,0.24400658905506134,-0.19520527124404907,0.07472702115774155,-0.04346626425895773,0.5193044808495907,0.7182033608606078,-1.8596849912747595,-1.8309215171144857,-0.7047129372287725,0.0,0.0,0.0,0.0,0.0,0.0,-13.989627178199497,2.196778249956022,-10.46854158620961,3.395735578623221,-1.4890789020521027,-0.1455130151394527,-0.04347273383917641,0.5192784165121069,0.7182211328624131,-1.859662786036688,-1.8308179548429864,-0.7046120734787321,0.0,0.0,0.0,0.0,0.0,0.0,0,32.3699836730957,31.269990921020508,32.1199836730957,41.07998275756836,43.00998306274414,46.49998474121094,0.320112,7,253,253,253,253,253,253,1,0.17381662130355835,9.116382598876953,-0.7042570114135742,0.0,1.0,0.0,48.19097137451172,48.13019943237305,0.6087239384651184,47.83399963378906,47.78799819946289,47.72700119018555,47.87900161743164,47.696998596191406,47.87900161743164,0,1
10250.216,-1.7082622686969202,-1.4460113684283655,0.8773298263549805,-1.684047047291891,-1.537772003804342,4.6051483154296875,0.0,0.0,0.0,0.0,0.0,0.0,0.0,0.0,0.0,0.0,0.0,0.0,-2.354744154141422,0.6520188587493864,0.13804257416430613,0.010076233655080018,-0.15814848574156407,0.0,-27.00934727813764,7.455624913034452,1.5810312033113494,0.0844750615754665,-1.305775827314104,0.0,-1.7082503477679651,-1.4459994474994105,0.8773179054260254,-1.684058968220846,-1.5378440062152308,4.605064868927002,0.0,0.0,-0.0,0.0,0.0,0.0,-2.90090274810791,0.5088909864425659,0.04707802087068558,0.26383212208747864,-0.1860550194978714,0.07167693227529526,-2.8919355869293213,0.5066491961479187,0.051561642438173294,0.24400658905506134,-0.19520527124404907,0.07472702115774155,-0.043472348282517476,0.519282249881003,0.7182218641786887,-1.8596273644318173,-1.8309113643470862,-0.7047163170725906,0.0,0.0,0.0,0.0,0.0,0.0,-13.922414559223181,2.1704788595514484,-10.60861179295591,3.5383545371626313,-1.528342180717384,-0.11142962318335167,-0.04347273383917641,0.5192784165121069,0.7182211328624131,-1.859662786036688,-1.8308179548429864,-0.7046120734787321,0.0,0.0,0.0,0.0,0.0,0.0,0,32.3699836730957,31.269990921020508,32.1199836730957,41.07998275756836,43.00998306274414,46.49998474121094,0.364512,7,253,253,253,253,253,253,1,0.15283875167369843,9.125372886657715,-0.6742886304855347,0.0,1.0,0.0,48.19097137451172,48.13019943237305,0.537108302116394,47.83399963378906,47.78799819946289,47.72700119018555,47.87900161743164,47.696998596191406,47.87900161743164,0,1
10250.224,-1.7082622686969202,-1.4460113684283655,0.8773298263549805,-1.684047047291891,-1.537772003804342,4.6051483154296875,0.0,0.0,0.0,0.0,0.0,0.0,0.0,0.0,0.0,0.0,0.0,0.0,-2.354744154141422,0.6520188587493864,0.13804257416430613,0.010076233655080018,-0.15814848574156407,0.0,-27.00934727813764,7.455624913034452,1.5810312033113494,0.0844750615754665,-1.305775827314104,0.0,-1.7082861105548304,-1.4459870497332972,0.8773179054260254,-1.6840227285968226,-1.537891689931051,4.605064868927002,0.0,0.0,-0.0,0.0,0.0,0.0,-2.90090274810791,0.5111327767372131,0.024659916758537292,0.24400658905506134,-0.19520527124404907,0.07777710258960724,-2.8919355869293213,0.5066491961479187,0.051561642438173294,0.24400658905506134,-0.19520527124404907,0.07472702115774155,-0.04344882176450004,0.5192909272671544,0.7182109181104983,-1.8597287031063512,-1.8309129422509016,-0.704729003554319,0.0,0.0,0.0,0.0,0.0,0.0,-13.609226724740235,1.2617933821049814,-11.46322977708891,3.4708044425347415,-1.463548283128351,0.011552790467246447,-0.04347273383917641,0.5192784165121069,0.7182211328624131,-1.859662786036688,-1.8308179548429864,-0.7046120734787321,0.0,0.0,0.0,0.0,0.0,0.0,0,32.3699836730957,31.269990921020508,32.1199836730957,41.07998275756836,43.00998306274414,46.49998474121094,0.365784,7,253,253,253,253,253,253,1,0.18280713260173798,9.086413383483887,-0.7102506756782532,0.0,1.0,0.0,48.13019943237305,48.13019943237305,0.3938823342323303,47.83399963378906,47.81800079345703,47.72700119018555,47.90999984741211,47.696998596191406,47.87900161743164,0,1
10250.232,-1.7082622686969202,-1.4460113684283655,0.8773298263549805,-1.684047047291891,-1.537772003804342,4.6051483154296875,0.0,0.0,0.0,0.0,0.0,0.0,0.0,0.0,0.0,0.0,0.0,0.0,-2.354744154141422,0.6520188587493864,0.13804257416430613,0.010076233655080018,-0.15814848574156407,0.0,-27.00934727813764,7.455624913034452,1.5810312033113494,0.0844750615754665,-1.305775827314104,0.0,-1.70823842683901,-1.4459994474994105,0.8773536682128906,-1.684070889149801,-1.5378559271441858,4.605088233947754,0.0,0.0,-0.0,0.0,0.0,0.0,-2.8896937370300293,0.5021655559539795,0.035868968814611435,0.23180626332759857,-0.19215518236160278,0.0762520581483841,-2.8919355869293213,0.5066491961479187,0.051561642438173294,0.24400658905506134,-0.19520527124404907,0.07472702115774155,-0.04347653672974553,0.5192889967562524,0.7182070364772858,-1.8596567864755011,-1.8309108218008021,-0.704693217893952,0.0,0.0,0.0,0.0,0.0,0.0,-13.432888455133536,2.0181088545121773,-10.185658628708234,3.193228431956052,-1.4403517026370674,-0.008087049567388748,-0.04347273383917641,0.5192784165121069,0.7182211328624131,-1.859662786036688,-1.8308179548429864,-0.7046120734787321,0.0,0.0,0.0,0.0,0.0,0.0,0,32.3699836730957,31.269990921020508,32.1199836730957,41.07998275756836,43.00998306274414,46.49998474121094,0.362388,7,253,253,253,253,253,253,1,0.19479449093341827,9.116382598876953,-0.7372222542762756,0.0,1.0,0.0,48.19097137451172,48.13019943237305,0.6445291042327881,47.83399963378906,47.81800079345703,47.72700119018555,47.90999984741211,47.696998596191406,47.87900161743164,0,1
10250.24,-1.7082622686969202,-1.4460113684283655,0.8773298263549805,-1.684047047291891,-1.537772003804342,4.6051483154296875,0.0,0.0,0.0,0.0,0.0,0.0,0.0,0.0,0.0,0.0,0.0,0.0,-2.354744154141422,0.6520188587493864,0.13804257416430613,0.010076233655080018,-0.15814848574156407,0.0,-27.00934727813764,7.455624913034452,1.5810312033113494,0.0844750615754665,-1.305775827314104,0.0,-1.7082503477679651,-1.4460113684283655,0.8773536682128906,-1.6840346495257776,-1.5378559271441858,4.605076789855957,0.0,0.0,-0.0,0.0,0.0,0.0,-2.8829684257507324,0.5088909864425659,0.049319833517074585,0.23333130776882172,-0.18758006393909454,0.07472702115774155,-2.8919355869293213,0.5066491961479187,0.051561642438173294,0.24400658905506134,-0.19520527124404907,0.07472702115774155,-0.04347138403339694,0.5192819406995569,0.7182085507138581,-1.85967554374602,-1.8309275038249624,-0.7046789017161494,0.0,0.0,0.0,0.0,0.0,0.0,-13.35715964791145,2.2989548828957824,-9.522118593924514,3.120602505933112,-1.4541142298984737,-0.042960221368504824,-0.04347273383917641,0.5192784165121069,0.7182211328624131,-1.859662786036688,-1.8308179548429864,-0.7046120734787321,0.0,0.0,0.0,0.0,0.0,0.0,0,32.3699836730957,31.269990921020508,32.1199836730957,41.07998275756836,43.00998306274414,46.49998474121094,0.356748,7,253,253,253,253,253,253,1,0.16482611000537872,9.098401069641113,-0.7222380638122559,0.0,1.0,0.0,48.19097137451172,48.13019943237305,0.5013031363487244,47.83399963378906,47.81800079345703,47.72700119018555,47.90999984741211,47.696998596191406,47.87900161743164,0,1
10250.248,-1.7082622686969202,-1.4460113684283655,0.8773298263549805,-1.684047047291891,-1.537772003804342,4.6051483154296875,0.0,0.0,0.0,0.0,0.0,0.0,0.0,0.0,0.0,0.0,0.0,0.0,-2.354744154141422,0.6520188587493864,0.13804257416430613,0.010076233655080018,-0.15814848574156407,0.0,-27.00934727813764,7.455624913034452,1.5810312033113494,0.0844750615754665,-1.305775827314104,0.0,-1.7082741896258753,-1.4459994474994105,0.8773179054260254,-1.684070889149801,-1.5378559271441858,4.605052947998047,0.0,0.0,-0.0,0.0,0.0,0.0,-2.8807265758514404,0.4999237656593323,0.06277069449424744,0.23028121888637543,-0.19063015282154083,0.08540230989456177,-2.8919355869293213,0.5066491961479187,0.051561642438173294,0.24400658905506134,-0.19520527124404907,0.07472702115774155,-0.04345898937505492,0.5192832225260717,0.7182233385125464,-1.8596435829487556,-1.8308981869339809,-0.7047511153318248,0.0,0.0,0.0,0.0,0.0,0.0,-13.168087068309458,3.1050252863693153,-8.38570593284309,2.941646280903077,-1.471561868021328,0.061376055823255296,-0.04347273383917641,0.5192784165121069,0.7182211328624131,-1.859662786036688,-1.8308179548429864,-0.7046120734787321,0.0,0.0,0.0,0.0,0.0,0.0,0,32.3699836730957,31.269990921020508,32.1199836730957,41.07998275756836,43.00998306274414,46.49998474121094,0.319236,7,253,253,253,253,253,253,1,0.19779132306575775,9.11038875579834,-0.7312285304069519,0.0,1.0,0.0,48.13019943237305,48.13019943237305,0.4654926657676697,47.83399963378906,47.81800079345703,47.72700119018555,47.90999984741211,47.696998596191406,47.87900161743164,0,1
10250.256,-1.7082622686969202,-1.4460113684283655,0.8773298263549805,-1.684047047291891,-1.537772003804342,4.6051483154296875,0.0,0.0,0.0,0.0,0.0,0.0,0.0,0.0,0.0,0.0,0.0,0.0,-2.354744154141422,0.6520188587493864,0.13804257416430613,0.010076233655080018,-0.15814848574156407,0.0,-27.00934727813764,7.455624913034452,1.5810312033113494,0.0844750615754665,-1.305775827314104,0.0,-1.7082503477679651,-1.446070973073141,0.8773179054260254,-1.6840346495257776,-1.5378802458392542,4.605040550231934,0.0,0.0,-0.0,0.0,0.0,0.0,-2.8896937370300293,0.4775056540966034,0.04707802087068558,0.2729823589324951,-0.19825536012649536,0.07015189528465271,-2.8919355869293213,0.5066491961479187,0.051561642438173294,0.24400658905506134,-0.19520527124404907,0.07472702115774155,-0.04347555324139935,0.519237253567566,0.7182551261651458,-1.859603889621326,-1.8309107297784744,-0.7048029861131597,0.0,0.0,0.0,0.0,0.0,0.0,-13.592067627382313,3.136285098347408,-10.228523579224671,3.587134624033885,-1.4231942175824024,-0.0414323992734813,-0.04347273383917641,0.5192784165121069,0.7182211328624131,-1.859662786036688,-1.8308179548429864,-0.7046120734787321,0.0,0.0,0.0,0.0,0.0,0.0,0,32.3699836730957,31.269990921020508,32.1199836730957,41.07998275756836,43.00998306274414,46.49998474121094,0.38466,7,253,253,253,253,253,253,1,0.1798103004693985,9.131366729736328,-0.7162443399429321,0.0,1.0,0.0,48.19097137451172,48.13019943237305,0.6445291042327881,47.83399963378906,47.81800079345703,47.72700119018555,47.90999984741211,47.696998596191406,47.87900161743164,0,1
10250.264,-1.7082622686969202,-1.4460113684283655,0.8773298263549805,-1.684047047291891,-1.537772003804342,4.6051483154296875,0.0,0.0,0.0,0.0,0.0,0.0,0.0,0.0,0.0,0.0,0.0,0.0,-2.354744154141422,0.6520188587493864,0.13804257416430613,0.010076233655080018,-0.15814848574156407,0.0,-27.00934727813764,7.455624913034452,1.5810312033113494,0.0844750615754665,-1.305775827314104,0.0,-1.7082741896258753,-1.4459870497332972,0.8773417472839355,-1.6840947310077112,-1.5378802458392542,4.605088233947754,0.0,0.0,-0.0,0.0,0.0,0.0,-2.903144598007202,0.5111327767372131,0.06501250714063644,0.2501067519187927,-0.19673031568527222,0.08235222101211548,-2.8919355869293213,0.5066491961479187,0.051561642438173294,0.24400658905506134,-0.19520527124404907,0.07472702115774155,-0.043455243351053205,0.519295698964001,0.7182091115105632,-1.8596962760471225,-1.830869271903301,-0.704750348038941,0.0,0.0,0.0,0.0,0.0,0.0,-13.73776677398021,2.818825427403322,-9.093591197589058,3.2204475422244414,-1.4744225989917787,0.04123819581096012,-0.04347273383917641,0.5192784165121069,0.7182211328624131,-1.859662786036688,-1.8308179548429864,-0.7046120734787321,0.0,0.0,0.0,0.0,0.0,0.0,0,32.3699836730957,31.269990921020508,32.1199836730957,41.07998275756836,43.00998306274414,46.49998474121094,0.358068,7,253,253,253,253,253,253,1,0.17381662130355835,9.11038875579834,-0.7012601494789124,0.0,1.0,0.0,48.13019943237305,48.13019943237305,0.537108302116394,47.83399963378906,47.81800079345703,47.72700119018555,47.90999984741211,47.68199920654297,47.87900161743164,0,1
10250.271999999999,-1.7082622686969202,-1.4460113684283655,0.8773298263549805,-1.684047047291891,-1.537772003804342,4.6051483154296875,0.0,0.0,0.0,0.0,0.0,0.0,0.0,0.0,0.0,0.0,0.0,0.0,-2.354744154141422,0.6520188587493864,0.13804257416430613,0.010076233655080018,-0.15814848574156407,0.0,-27.00934727813764,7.455624913034452,1.5810312033113494,0.0844750615754665,-1.305775827314104,0.0,-1.7082861105548304,-1.4460352102862757,0.8773660659790039,-1.6840346495257776,-1.537891689931051,4.605088233947754,0.0,0.0,-0.0,0.0,0.0,0.0,-2.8807265758514404,0.5021655559539795,0.038110777735710144,0.23180626332759857,-0.19215518236160278,0.07015189528465271,-2.8919355869293213,0.5066491961479187,0.051561642438173294,0.24400658905506134,-0.19520527124404907,0.07472702115774155,-0.043451588129315474,0.5192708469809993,0.7182149604307387,-1.8597396786740563,-1.8308813272805673,-0.7047319175374226,0.0,0.0,0.0,0.0,0.0,0.0,-13.289657487734893,2.086330509640985,-10.043311418090285,3.1812411320573957,-1.3939349917771964,-0.045875843507656194,-0.04347273383917641,0.5192784165121069,0.7182211328624131,-1.859662786036688,-1.8308179548429864,-0.7046120734787321,0.0,0.0,0.0,0.0,0.0,0.0,0,32.3699836730957,31.269990921020508,32.1199836730957,41.07998275756836,43.00998306274414,46.49998474121094,0.359724,7,253,253,253,253,253,253,1,0.1917976588010788,9.12237548828125,-0.6952664852142334,0.0,1.0,0.0,48.19097137451172,48.13019943237305,0.6445291042327881,47.83399963378906,47.81800079345703,47.72700119018555,47.90999984741211,47.68199920654297,47.87900161743164,0,1
10250.279999999999,-1.7082622686969202,-1.4460113684283655,0.8773298263549805,-1.684047047291891,-1.537772003804342,4.6051483154296875,0.0,0.0,0.0,0.0,0.0,0.0,0.0,0.0,0.0,0.0,0.0,0.0,-2.354744154141422,0.6520188587493864,0.13804257416430613,0.010076233655080018,-0.15814848574156407,0.0,-27.00934727813764,7.455624913034452,1.5810312033113494,0.0844750615754665,-1.305775827314104,0.0,-1.7082861105548304,-1.445975128804342,0.8773660659790039,-1.684058968220846,-1.5378802458392542,4.605040550231934,0.0,0.0,-0.0,0.0,0.0,0.0,-2.8874518871307373,0.5156164169311523,0.04483621194958687,0.23790642619132996,-0.19673031568527222,0.0732019767165184,-2.8919355869293213,0.5066491961479187,0.051561642438173294,0.24400658905506134,-0.19520527124404907,0.07472702115774155,-0.043447340549034916,0.5193084783120364,0.7181874715088726,-1.859716437100197,-1.8309520800617096,-0.7047044736200198,0.0,0.0,0.0,0.0,0.0,0.0,-13.349647807934813,1.8820769209889,-10.089351274966779,3.2463931817561797,-1.389002889189464,7.835387150570953e-05,-0.04347273383917641,0.5192784165121069,0.7182211328624131,-1.859662786036688,-1.8308179548429864,-0.7046120734787321,0.0,0.0,0.0,0.0,0.0,0.0,0,32.3699836730957,31.269990921020508,32.1199836730957,41.07998275756836,43.00998306274414,46.49998474121094,0.376404,7,253,253,253,253,253,253,1,0.18880081176757812,9.095404624938965,-0.6712917685508728,0.0,1.0,0.0,48.13019943237305,48.13019943237305,0.537108302116394,47.83399963378906,47.81800079345703,47.72700119018555,47.90999984741211,47.68199920654297,47.87900161743164,0,1
10250.287999999999,-1.7082622686969202,-1.4460113684283655,0.8773298263549805,-1.684047047291891,-1.537772003804342,4.6051483154296875,0.0,0.0,0.0,0.0,0.0,0.0,0.0,0.0,0.0,0.0,0.0,0.0,-2.354744154141422,0.6520188587493864,0.13804257416430613,0.010076233655080018,-0.15814848574156407,0.0,-27.00934727813764,7.455624913034452,1.5810312033113494,0.0844750615754665,-1.305775827314104,0.0,-1.7082861105548304,-1.4459994474994105,0.8773417472839355,-1.6840346495257776,-1.537891689931051,4.605100154876709,0.0,0.0,-0.0,0.0,0.0,0.0,-2.8919355869293213,0.49544012546539307,0.022418105974793434,0.2562069296836853,-0.18758006393909454,0.08540230989456177,-2.8919355869293213,0.5066491961479187,0.051561642438173294,0.24400658905506134,-0.19520527124404907,0.07472702115774155,-0.04344920353457969,0.5192881396273165,0.7182078535544818,-1.859756277367164,-1.8308754933178755,-0.7047171350924408,0.0,0.0,0.0,0.0,0.0,0.0,-13.381426806922356,1.6193047815325137,-11.651545316343165,3.5947001188149814,-1.5668538032014419,0.030096337024902598,-0.04347273383917641,0.5192784165121069,0.7182211328624131,-1.859662786036688,-1.8308179548429864,-0.7046120734787321,0.0,0.0,0.0,0.0,0.0,0.0,0,32.3699836730957,31.269990921020508,32.1199836730957,41.07998275756836,43.00998306274414,46.49998474121094,0.314892,7,253,253,253,253,253,253,1,0.1917976588010788,9.086413383483887,-0.7072538733482361,0.0,1.0,0.0,48.13019943237305,48.13019943237305,0.3938823342323303,47.83399963378906,47.81800079345703,47.72700119018555,47.90999984741211,47.68199920654297,47.8489990234375,0,1
10250.296,-1.7082622686969202,-1.4460113684283655,0.8773298263549805,-1.684047047291891,-1.537772003804342,4.6051483154296875,0.0,0.0,0.0,0.0,0.0,0.0,0.0,0.0,0.0,0.0,0.0,0.0,-2.354744154141422,0.6520188587493864,0.13804257416430613,0.010076233655080018,-0.15814848574156407,0.0,-27.00934727813764,7.455624913034452,1.5810312033113494,0.0844750615754665,-1.305775827314104,0.0,-1.7082985083209437,-1.4459994474994105,0.8773179054260254,-1.684070889149801,-1.5378320852862757,4.605040550231934,0.0,0.0,-0.0,0.0,0.0,0.0,-2.8829684257507324,0.5111327767372131,0.04035259038209915,0.23485633730888367,-0.19368022680282593,0.06710181385278702,-2.8919355869293213,0.5066491961479187,0.051561642438173294,0.24400658905506134,-0.19520527124404907,0.07472702115774155,-0.04344831031277496,0.5192845044849197,0.7182233832382985,-1.8596423893352336,-1.830890677386322,-0.7047413030316816,0.0,0.0,0.0,0.0,0.0,0.0,-13.359783032694839,1.8716783383960551,-10.18509762056097,3.231960257053464,-1.372886767572954,-0.06297423866370347,-0.04347273383917641,0.5192784165121069,0.7182211328624131,-1.859662786036688,-1.8308179548429864,-0.7046120734787321,0.0,0.0,0.0,0.0,0.0,0.0,0,32.3699836730957,31.269990921020508,32.1199836730957,41.07998275756836,43.00998306274414,46.49998474121094,0.358164,7,253,253,253,253,253,253,1,0.17381662130355835,9.143353462219238,-0.7402190566062927,0.0,1.0,0.0,48.19097137451172,48.13019943237305,0.537108302116394,47.83399963378906,47.81800079345703,47.72700119018555,47.90999984741211,47.68199920654297,47.8489990234375,0,1
10250.304,-1.7082622686969202,-1.4460113684283655,0.8773298263549805,-1.684047047291891,-1.537772003804342,4.6051483154296875,0.0,0.0,0.0,0.0,0.0,0.0,0.0,0.0,0.0,0.0,0.0,0.0,-2.354744154141422,0.6520188587493864,0.13804257416430613,0.010076233655080018,-0.15814848574156407,0.0,-27.00934727813764,7.455624913034452,1.5810312033113494,0.0844750615754665,-1.305775827314104,0.0,-1.7082985083209437,-1.4459870497332972,0.8773298263549805,-1.684058968220846,-1.5378802458392542,4.605112552642822,0.0,0.0,-0.0,0.0,0.0,0.0,-2.8919355869293213,0.5111327767372131,0.022418105974793434,0.2257061004638672,-0.19215518236160278,0.0564265251159668,-2.8919355869293213,0.5066491961479187,0.051561642438173294,0.24400658905506134,-0.19520527124404907,0.07472702115774155,-0.043442966965105176,0.5192941658516093,0.7182100554776072,-1.8597558798413958,-1.8308380135618334,-0.704728319081233,0.0,0.0,0.0,0.0,0.0,0.0,-13.728301102761156,1.2633778215629634,-11.03933759106971,3.2606517733437195,-1.3406516882534338,-0.16558672263808608,-0.04347273383917641,0.5192784165121069,0.7182211328624131,-1.859662786036688,-1.8308179548429864,-0.7046120734787321,0.0,0.0,0.0,0.0,0.0,0.0,0,32.3699836730957,31.269990921020508,32.1199836730957,41.07998275756836,43.00998306274414,46.49998474121094,0.382152,7,253,253,253,253,253,253,1,0.16182926297187805,9.083416938781738,-0.6982633471488953,0.0,1.0,0.0,48.19097137451172,48.13019943237305,0.5013031363487244,47.83399963378906,47.8489990234375,47.72700119018555,47.87900161743164,47.68199920654297,47.8489990234375,0,1
10250.312,-1.7082622686969202,-1.4460113684283655,0.8773298263549805,-1.684047047291891,-1.537772003804342,4.6051483154296875,0.0,0.0,0.0,0.0,0.0,0.0,0.0,0.0,0.0,0.0,0.0,0.0,-2.354744154141422,0.6520188587493864,0.13804257416430613,0.010076233655080018,-0.15814848574156407,0.0,-27.00934727813764,7.455624913034452,1.5810312033113494,0.0844750615754665,-1.305775827314104,0.0,-1.7083104292498987,-1.4459994474994105,0.8773417472839355,-1.684047047291891,-1.5378440062152308,4.605064868927002,0.0,0.0,-0.0,0.0,0.0,0.0,-2.8964192867279053,0.5088909864425659,0.07622155547142029,0.23180626332759857,-0.19215518236160278,0.07930213958024979,-2.8919355869293213,0.5066491961479187,0.051561642438173294,0.24400658905506134,-0.19520527124404907,0.07472702115774155,-0.04344046980696129,0.519289697671065,0.7182094994958275,-1.8597124587836926,-1.8308838697781242,-0.7047041520403141,0.0,0.0,0.0,0.0,0.0,0.0,-13.705672849179999,3.3957536246198576,-7.769680348475513,2.8795009009153336,-1.4539887595836751,-0.00348385128631663,-0.04347273383917641,0.5192784165121069,0.7182211328624131,-1.859662786036688,-1.8308179548429864,-0.7046120734787321,0.0,0.0,0.0,0.0,0.0,0.0,0,32.3699836730957,31.269990921020508,32.1199836730957,41.07998275756836,43.00998306274414,46.49998474121094,0.36888,7,253,253,253,253,253,253,1,0.17081978917121887,9.116382598876953,-0.6742886304855347,0.0,1.0,0.0,48.13019943237305,48.13019943237305,0.4654926657676697,47.81800079345703,47.8489990234375,47.71200180053711,47.87900161743164,47.68199920654297,47.8489990234375,0,1
